!!!!SEGMENT: pl-cz--iii-112--004_dankowski-adalbert--vesperae-d-gloria-patri.krn
!!!cenid: 18xx:801
!!!COM: Dankowski, Adalbert
!!!COM-rismid: pe30000793
!!!CDT: ~1760-~1836
!!!CNT: Polish
!!!OPR: Vesperae D
!!!OTL: Gloria patri
!!!OMV: 004
!!!PDT:
!!!AGN: Sacred; Vespers
!!!SMS-siglum: PL-CZ
!!!SMS-shelfmark: III-112
!!!SMS-shelfwork: 001-004 M
!!!SMS-variant:
!!!SMS-altvar:
!!!NIFC-rismid: 300033579
!!!URL-scan: http://repozytorium.nifc.pl/skany/pl-cz-nut--iii-112
!!!ONB-nifc: UWAGA: części Vesperae: Dixit Dominus, Tecum principium, Dominus, Gloria patri, Nunc dimittis – Magnificat, Et misericordia, Gloria patri
!!!key: G
**kern	**fba	**dynam	**kern	**dynam	**kern	**dynam	**kern	**text	**kern	**text	**kern	**text	**kern	**text	**kern	**kern
*group4	*	*	*group3	*	*group3	*	*group2	*	*group2	*	*group2	*	*group2	*	*group1	*group1
*part9	*part9	*part9	*part8	*part8	*part7	*part7	*part6	*part6	*part5	*part5	*part4	*part4	*part3	*part3	*part2	*part1
*staff9	*	*	*staff8	*	*staff7	*	*staff6	*staff6	*staff5	*staff5	*staff4	*staff4	*staff3	*staff3	*staff2	*staff1
*I"Organo	*	*	*I"Violino ſecondo	*	*I"Violino Primo	*	*I"Baſso	*	*I"Tenore	*	*I"Alto	*	*I"Canto	*	*I"Clarino ſecondo	*I"Clarino Primo Ex D:
*I'[Org]	*	*	*I'[Vl 2]	*	*I'[Vl 1]	*	*I'[B]	*	*I'[T]	*	*I'[A]	*	*I'[S]	*	*I'[Clar 2]	*I'[Clno 1 in D]
*Iorgan	*	*	*Ivioln	*	*Ivioln	*	*Ibass	*	*Itenor	*	*Ialto	*	*Isoprn	*	*Itromp	*Itromp
*ICklav	*	*	*ICstr	*	*ICstr	*	*ICvox	*	*ICvox	*	*ICvox	*	*ICvox	*	*ICbras	*ICbras
*IGcont	*	*	*IGacmp	*	*IGacmp	*	*IGcoro	*	*IGcoro	*	*IGcoro	*	*IGcoro	*	*IGacmp	*IGacmp
*clefF4	*	*	*clefG2	*	*clefG2	*	*clefF4	*	*clefC4	*	*clefC3	*	*clefC1	*	*clefG2	*clefG2
*	*	*	*	*	*	*	*	*	*	*	*	*	*	*	*ITrd-1c-2	*ITrd-1c-2
*k[f#]	*	*	*k[f#]	*	*k[f#]	*	*k[f#]	*	*k[f#]	*	*k[f#]	*	*k[f#]	*	*k[f#]	*k[f#]
*G:	*	*	*G:	*	*G:	*	*G:	*	*G:	*	*G:	*	*G:	*	*G:	*G:
*M4/4	*	*	*M4/4	*	*M4/4	*	*M4/4	*	*M4/4	*	*M4/4	*	*M4/4	*	*M4/4	*M4/4
*met(c)	*	*	*met(c)	*	*met(c)	*	*met(c)	*	*met(c)	*	*met(c)	*	*met(c)	*	*met(c)	*met(c)
=1	=1	=1	=1	=1	=1	=1	=1	=1	=1	=1	=1	=1	=1	=1	=1	=1
!LO:TX:a:B:t=tutti adag&colon;	!	!	!LO:TX:a:B:t=adag&colon;	!	!LO:TX:a:B:t=adagio	!LO:DY:a:t=f&colon;	!LO:TX:a:B:t=adag&colon;	!	!LO:TX:a:B:t=adag&colon;	!	!LO:TX:a:B:t=adag&colon;	!	!LO:TX:a:B:t=adag&colon;	!	!LO:TX:a:B:t=adagio	!LO:TX:a:B:t=adag&colon;
8G\L	.	.	16b/LL	.	16dd\LL	f	4G\	Glo-	4d\	Glo-	4g\	Glo-	4b\	Glo-	4d/	4dd\
.	.	.	16g/	.	16b\	.	.	.	.	.	.	.	.	.	.	.
!	!	!	!	!LO:DY:a:t=for	!	!	!	!	!	!	!	!	!	!	!	!
8G\	.	.	16g/	f	16b\	.	.	.	.	.	.	.	.	.	.	.
.	.	.	16g/JJ	.	16b\JJ	.	.	.	.	.	.	.	.	.	.	.
8G\	.	.	16g/LL	.	16b\LL	.	8G\	-ri-	8d\	-ri-	8g\	-ri-	8b\	-ri-	4d/	4dd\
.	.	.	16d/	.	16g\	.	.	.	.	.	.	.	.	.	.	.
8G\J	.	.	16b/	.	16dd\	.	8G\	-a	8d\	-a	8g\	-a	8b\	-a	.	.
.	.	.	16g/JJ	.	16b\JJ	.	.	.	.	.	.	.	.	.	.	.
*tremolo	*	*	*	*	*	*	*	*	*	*	*	*	*	*	*	*
*2\right	*	*	*	*	*	*	*	*	*	*	*	*	*	*	*	*
8D\L	.	.	32f#/LLL	.	32a/LLL	.	4D\	pa-	4d\	pa-	4f#\	pa-	4a\	pa-	4d/	4dd\
.	.	.	32e/	.	32g/	.	.	.	.	.	.	.	.	.	.	.
.	.	.	32f#/	.	32a/	.	.	.	.	.	.	.	.	.	.	.
.	.	.	32g/JJJ	.	32b/JJJ	.	.	.	.	.	.	.	.	.	.	.
8D\	.	.	16a/LL	.	16cc\LL	.	.	.	.	.	.	.	.	.	.	.
.	.	.	16a/JJ	.	16cc\JJ	.	.	.	.	.	.	.	.	.	.	.
8D\	.	.	16a/LL	.	16cc\LL	.	4D\	-tri	4d\	-tri	4f#\	-tri	4a\	-tri	4d/	4dd\
.	.	.	16g/	.	16b\	.	.	.	.	.	.	.	.	.	.	.
8D\J	.	.	16g/	.	16b\	.	.	.	.	.	.	.	.	.	.	.
.	.	.	16f#/JJ	.	16a\JJ	.	.	.	.	.	.	.	.	.	.	.
=2	=2	=2	=2	=2	=2	=2	=2	=2	=2	=2	=2	=2	=2	=2	=2	=2
8F#\L	6 5	.	16f#/LL	.	16a\LL	.	4F#\	glo-	4d\	glo-	4a\	glo-	4cc\	glo-	4d/	4dd\
.	.	.	16a/	.	16cc\	.	.	.	.	.	.	.	.	.	.	.
8F#\	.	.	16a/	.	16cc\	.	.	.	.	.	.	.	.	.	.	.
.	.	.	16a/JJ	.	16cc\JJ	.	.	.	.	.	.	.	.	.	.	.
8F#\	.	.	16a/LL	.	16cc\LL	.	8F#\L	-ri-	8d\	-ri-	8a\	-ri-	8cc\	-ri-	4d/	4dd\
.	.	.	16f#/	.	16a\	.	.	.	.	.	.	.	.	.	.	.
8F#\J	.	.	16cc/	.	16dd\	.	8F#\J	-a	8d\	-a	8a\	-a	8cc\	-a	.	.
.	.	.	16a/JJ	.	16cc\JJ	.	.	.	.	.	.	.	.	.	.	.
8G\L	.	.	32g/LLL	.	32b\LLL	.	8.G\	fi-	8.d\	fi-	8.g\	fi-	8.b\	fi-	4d/	4dd\
.	.	.	32f#/	.	32a\	.	.	.	.	.	.	.	.	.	.	.
.	.	.	32g/	.	32b\	.	.	.	.	.	.	.	.	.	.	.
.	.	.	32a/JJJ	.	32cc\JJJ	.	.	.	.	.	.	.	.	.	.	.
8G\	.	.	16b/LL	.	16dd\LL	.	.	.	.	.	.	.	.	.	.	.
.	.	.	16b/JJ	.	16dd\JJ	.	16G\	-li-	16d\	-li-	16g\	-li-	16b\	-li-	.	.
8G\	.	.	16b/LL	.	16dd\LL	.	4G\	-o	4d\	-o	4g\	-o	4b\	-o	4d/	4dd\
.	.	.	16a/	.	16cc\	.	.	.	.	.	.	.	.	.	.	.
8G\J	.	.	16a/	.	16cc\	.	.	.	.	.	.	.	.	.	.	.
.	.	.	16g/JJ	.	16b\JJ	.	.	.	.	.	.	.	.	.	.	.
!	!	!	!LO:LB:g=original	!	!LO:LB:g=original	!	!	!	!	!	!	!	!	!	!	!
=3	=3	=3	=3	=3	=3	=3	=3	=3	=3	=3	=3	=3	=3	=3	=3	=3
8G\L	.	.	8g/L	.	16b\LL	.	4G\	(et)	4d\	(et)	4g\	(et)	4b\	(et)	4d/	4dd\
.	.	.	.	.	16dd\	.	.	.	.	.	.	.	.	.	.	.
8G\	.	.	8b/	.	16dd\	.	.	.	.	.	.	.	.	.	.	.
.	.	.	.	.	16dd\JJ	.	.	.	.	.	.	.	.	.	.	.
8G\	.	.	8b/	.	16dd\LL	.	4G\	ſpi-	4d\	ſpi-	4g\	ſpi-	4b\	ſpi-	4d/	4dd\
.	.	.	.	.	16b\	.	.	.	.	.	.	.	.	.	.	.
8G\J	.	.	8b/J	.	16ee\	.	.	.	.	.	.	.	.	.	.	.
.	.	.	.	.	16dd\JJ	.	.	.	.	.	.	.	.	.	.	.
!	!	!	!	!	!	!	!LO:LB:g=original	!	!LO:LB:g=original	!	!LO:LB:g=original	!	!LO:LB:g=original	!	!	!
*Xtremolo	*	*	*tremolo	*	*	*	*	*	*	*	*	*	*	*	*	*
8G\L	#4r: 2:	.	8a/L	.	16dd\LL	.	8.G\	-ri-	8.e\	-ri-	8.a\	-ri-	8.cc#X\	-ri-	4a/	4ee\
.	.	.	.	.	16cc#X\	.	.	.	.	.	.	.	.	.	.	.
8G\	.	.	8a/	.	16cc#\	.	.	.	.	.	.	.	.	.	.	.
.	.	.	.	.	16cc#\JJ	.	16G\	-tu-	16e\	-tu-	16a\	-tu-	16cc#\	-tu-	.	.
8F#\	6: x	.	8a/	.	16dd\LL	.	4F#\	-i	4f#\	-i	4a\	-i	4dd\	-i	4dd\	8ff#\L
.	.	.	.	.	16a\	.	.	.	.	.	.	.	.	.	.	.
8F#\J	.	.	8a/J	.	16ff#\	.	.	.	.	.	.	.	.	.	.	8aa\J
.	.	.	.	.	16dd\JJ	.	.	.	.	.	.	.	.	.	.	.
*	*	*	*Xtremolo	*	*	*	*	*	*	*	*	*	*	*	*	*
=4	=4	=4	=4	=4	=4	=4	=4	=4	=4	=4	=4	=4	=4	=4	=4	=4
*	*	*	*	*	*	*	*2\right	*	*	*	*	*	*2\right	*	*	*
8B\L	7 x	.	8a/L	.	8dd\L	.	2B\	ſan-	4f#\	ſan-	4a\	ſan-	2dd\	ſan-	4ff#\	4aa\
8B\	.	.	8a/	.	8dd\	.	.	.	.	.	.	.	.	.	.	.
8B\	6 x	.	8g#X/	.	8dd\	.	.	.	4e\	.	4g#X\	.	.	.	4ee\	4gg#X\
8B\J	.	.	8g#/J	.	8dd\J	.	.	.	.	.	.	.	.	.	.	.
4A\	.	.	4a/	.	4cc#X\	.	4A\	-cto	4e\	-cto	4a\	-cto	4cc#X\	-cto	4a/	4aa\
4r	.	.	4r	.	4r	.	4r	.	4r	.	4r	.	4r	.	4r	4r
!LO:LB:g=original	!	!	!LO:LB:g=original	!	!LO:LB:g=original	!	!LO:LB:g=original	!	!LO:LB:g=original	!	!LO:LB:g=original	!	!LO:LB:g=original	!	!LO:LB:g=original	!LO:LB:g=original
=5||	=5||	=5||	=5||	=5||	=5||	=5||	=5||	=5||	=5||	=5||	=5||	=5||	=5||	=5||	=5||	=5||
*k[f#c#]	*	*	*k[f#c#]	*	*k[f#c#]	*	*k[f#c#]	*	*k[f#c#]	*	*k[f#c#]	*	*k[f#c#]	*	*k[f#c#]	*k[f#c#]
!	!	!	!	!	!	!	!	!	!	!	!	!	!	!	!LO:TX:a:t=8.	!LO:TX:a:t=8
!LO:TX:a:i:t=allegro	!	!	!LO:TX:a:i:t=allegro	!	!LO:TX:a:i:t=allegro Solo&colon;	!LO:DY:b:t=p&colon;:rj	!LO:TX:a:i:t=allegro	!	!LO:TX:a:i:t=allegro&colon;	!	!LO:TX:a:i:t=allegro&colon;Solo&colon;	!	!LO:TX:a:i:t=allegro Solo	!	!LO:TX:a:i:t=Allegro	!LO:TX:a:i:t=allegro
8D\L	.	.	4.f#/	.	4.a/	p	00r	.	00r	.	4.f#\	ſi-	4.a\	ſi-	00r	00r
8D\	.	.	.	.	.	.	.	.	.	.	.	.	.	.	.	.
!	!	!LO:DY:a:t=pia&colon;	!	!	!	!	!	!	!	!	!	!	!	!	!	!
8D\	.	p	.	.	.	.	.	.	.	.	.	.	.	.	.	.
8D\J	.	.	16d/LL	.	16f#/LL	.	.	.	.	.	16d\LL	-cut	16f#\LL	-cut	.	.
.	.	.	16e/JJ	.	16g/JJ	.	.	.	.	.	16e\JJ	.	16g\JJ	.	.	.
*tremolo	*	*	*	*	*	*	*	*	*	*	*	*	*	*	*	*
8D\L	.	.	4f#/	.	4a/	.	.	.	.	.	4f#\	e-	4a\	e-	.	.
8D\	.	.	.	.	.	.	.	.	.	.	.	.	.	.	.	.
!	!	!	!	!LO:DY:a:t=pia&colon;	!	!	!	!	!	!	!	!	!	!	!	!
8D\	.	.	4f#/	p	4a/	.	.	.	.	.	4f#\	-rat	4a\	-rat	.	.
8D\J	.	.	.	.	.	.	.	.	.	.	.	.	.	.	.	.
=6	=6	=6	=6	=6	=6	=6	=6-	=6	=6-	=6	=6	=6	=6	=6	=6-	=6-
8D\L	.	.	4.f#/	.	4.a/	.	.	.	.	.	4.f#\	in	4.a\	in	.	.
8D\	.	.	.	.	.	.	.	.	.	.	.	.	.	.	.	.
8D\	.	.	.	.	.	.	.	.	.	.	.	.	.	.	.	.
8D\J	.	.	16d/LL	.	16f#/LL	.	.	.	.	.	16d\LL	prin-	16f#\LL	prin-	.	.
.	.	.	16e/JJ	.	16g/JJ	.	.	.	.	.	16e\JJ	.	16g\JJ	.	.	.
8D\L	.	.	4f#/	.	4a/	.	.	.	.	.	4f#\	-ci-	4a\	-ci-	.	.
8D\	.	.	.	.	.	.	.	.	.	.	.	.	.	.	.	.
8D\	.	.	4f#/	.	4a/	.	.	.	.	.	4f#\	-pi-	4a\	-pi-	.	.
8D\J	.	.	.	.	.	.	.	.	.	.	.	.	.	.	.	.
=7	=7	=7	=7	=7	=7	=7	=7-	=7	=7-	=7	=7	=7	=7	=7	=7-	=7-
8D\L	6: 4:	.	4.g/	.	4.b\	.	.	.	.	.	4.g\	-o	4.b\	-o	.	.
8D\	.	.	.	.	.	.	.	.	.	.	.	.	.	.	.	.
8D\	.	.	.	.	.	.	.	.	.	.	.	.	.	.	.	.
8D\J	.	.	8f#/	.	8a\	.	.	.	.	.	8f#\	(et)	8a\	(et)	.	.
8D\L	.	.	8g/L	.	8b\L	.	.	.	.	.	8g\L	nunc	8b\L	nunc	.	.
8D\	.	.	8a/	.	8cc#\	.	.	.	.	.	8a\J	.	8cc#\J	.	.	.
8D\	.	.	8b/	.	8dd\	.	.	.	.	.	8b\L	(et)	8dd\L	(et)	.	.
8D\J	.	.	8g/J	.	8b\J	.	.	.	.	.	8g\J	.	8b\J	.	.	.
!	!	!	!	!	!	!	!	!	!	!	!LO:LB:g=original	!	!	!	!	!
=8	=8	=8	=8	=8	=8	=8	=8-	=8	=8-	=8	=8	=8	=8	=8	=8-	=8-
*	*	*	*	*	*	*	*	*	*	*	*2\right	*	*	*	*	*
8D\L	.	.	4.g/	.	4.b\	.	.	.	.	.	2g\	ſem-	2b\	ſem-	.	.
8D\	.	.	.	.	.	.	.	.	.	.	.	.	.	.	.	.
8D\	.	.	.	.	.	.	.	.	.	.	.	.	.	.	.	.
8D\J	.	.	16f#/LL	.	16a\LL	.	.	.	.	.	.	.	.	.	.	.
.	.	.	16g/JJ	.	16b\JJ	.	.	.	.	.	.	.	.	.	.	.
8D\L	5 3	.	4f#/	.	4a/	.	.	.	.	.	4f#\	-per	4a\	-per	.	.
8D\	.	.	.	.	.	.	.	.	.	.	.	.	.	.	.	.
!	!	!	!	!	!	!	!	!	!	!	!	!	!LO:LB:g=original	!	!	!
8D\	.	.	4d/	.	4f#/	.	.	.	.	.	4d\	(et)	4f#/	(et)	.	.
8D\J	.	.	.	.	.	.	.	.	.	.	.	.	.	.	.	.
=9	=9	=9	=9	=9	=9	=9	=9-	=9	=9-	=9	=9	=9	=9	=9	=9-	=9-
8AA/L	.	.	4.c#/	.	4.e/	.	00r	.	00r	.	(>4.c#\	nunc	4.e/	nunc	00r	00r
8AA/	.	.	.	.	.	.	.	.	.	.	.	.	.	.	.	.
8AA/	.	.	.	.	.	.	.	.	.	.	.	.	.	.	.	.
8AA/J	.	.	16B/LL	.	16d/LL	.	.	.	.	.	16B\LL	.	16d/LL	.	.	.
.	.	.	16c#/JJ	.	16e/JJ	.	.	.	.	.	16c#\JJ)	.	16e/JJ	.	.	.
!	!	!	!	!	!LO:LB:g=original	!	!	!	!	!	!	!	!	!	!	!
8D\L	.	.	8d/L	.	8f#/L	.	.	.	.	.	8d\L	.	8f#/L	.	.	.
8D\	.	.	8e/	.	8g/	.	.	.	.	.	8e\J	.	8g/J	.	.	.
8D\	.	.	8f#/	.	8a/	.	.	.	.	.	8f#\L	(et)	8a/L	(et)	.	.
8D\J	.	.	8d/J	.	8f#/J	.	.	.	.	.	8d\J	.	8f#/J	.	.	.
!	!	!	!LO:LB:g=original	!	!	!	!	!	!	!	!	!	!	!	!	!
=10	=10	=10	=10	=10	=10	=10	=10-	=10	=10-	=10	=10	=10	=10	=10	=10-	=10-
8AA/L	.	.	4.c#/	.	4.e/	.	.	.	.	.	(>4.c#\	ſem-	4.e/	ſem-	.	.
8AA/	.	.	.	.	.	.	.	.	.	.	.	.	.	.	.	.
8AA/	.	.	.	.	.	.	.	.	.	.	.	.	.	.	.	.
8AA/J	.	.	16B/LL	.	16d/LL	.	.	.	.	.	16B\LL	.	(<16d/LL	.	.	.
.	.	.	16c#/JJ	.	16e/JJ	.	.	.	.	.	16c#\JJ)	.	16e/JJ)	.	.	.
8D\L	.	.	4d/	.	4f#/	.	.	.	.	.	4d\	-per	4f#/	-per	.	.
8D\	.	.	.	.	.	.	.	.	.	.	.	.	.	.	.	.
*	*	*	*	*	*	*	*	*	*	*	*	*	*	*ij	*	*
8D\	.	.	4f#/	.	4a/	.	.	.	.	.	4f#\	(et)	4a\	et	.	.
8D\J	.	.	.	.	.	.	.	.	.	.	.	.	.	.	.	.
!LO:LB:g=original	!	!	!	!	!	!	!	!	!	!	!	!	!	!	!	!
=11	=11	=11	=11	=11	=11	=11	=11-	=11	=11-	=11	=11	=11	=11	=11	=11-	=11-
*Xtremolo	*	*	*	*	*	*	*	*	*	*	*	*	*	*	*	*
8D\L	.	.	4.f#/	.	4.a/	.	.	.	.	.	(>2f#\	nunc	(>2a\	nunc	.	.
8D\	.	.	.	.	.	.	.	.	.	.	.	.	.	.	.	.
8D\	.	.	.	.	.	.	.	.	.	.	.	.	.	.	.	.
8D\J	.	.	16d/LL	.	16g/LL	.	.	.	.	.	.	.	.	.	.	.
.	.	.	16e/JJ	.	16a/JJ	.	.	.	.	.	.	.	.	.	.	.
*tremolo	*	*	*	*	*	*	*	*	*	*	*	*	*	*	*	*
8D\L	.	.	8g/L	.	8b/L	.	.	.	.	.	8g\L)	.	8b\L)	.	.	.
8D\	.	.	8f#/	.	8a/	.	.	.	.	.	8f#\J	.	8a\J	.	.	.
8D\	.	.	8e/	.	8g/	.	.	.	.	.	8e\L	(et)	8g/L	et	.	.
8D\J	.	.	8d/J	.	8f#/J	.	.	.	.	.	8d\J	.	8f#/J	.	.	.
!	!	!	!	!	!	!	!	!	!	!	!LO:LB:g=original	!	!	!	!	!
=12	=12	=12	=12	=12	=12	=12	=12-	=12	=12-	=12	=12	=12	=12	=12	=12-	=12-
8A\L	4 x	.	2d/	.	2f#/	.	.	.	.	.	2d\	ſem-	2f#/	ſem-	.	.
8A\	.	.	.	.	.	.	.	.	.	.	.	.	.	.	.	.
8A\	.	.	.	.	.	.	.	.	.	.	.	.	.	.	.	.
8A\J	.	.	.	.	.	.	.	.	.	.	.	.	.	.	.	.
8A\L	x 3	.	4c#/	.	4e/	.	.	.	.	.	4c#\	-per	4e/	-per	.	.
8G\	.	.	.	.	.	.	.	.	.	.	.	.	.	.	.	.
8F#\	.	.	4r	.	4r	.	.	.	.	.	4r	.	4r	.	.	.
!LO:TX:a:i:t=tutti	!	!	!	!	!	!	!	!	!	!	!	!	!	!	!	!
8E\J	.	.	.	.	.	.	.	.	.	.	.	.	.	.	.	.
*	*	*	*	*	*	*	*	*	*	*	*	*	*	*Xij	*	*
!	!	!	!	!	!	!	!	!	!	!	!	!	!LO:LB:g=original	!	!	!
=13	=13	=13	=13	=13	=13	=13	=13	=13	=13	=13	=13	=13	=13	=13	=13	=13
*	*	*	*^	*	*	*	*	*	*	*	*	*	*	*	*	*
!	!	!	!	!	!LO:DY:a:t=for:rj	!	!LO:DY:a:rj:t=for	!	!	!	!	!	!	!	!	!	!
*	*	*	*Xtremolo	*Xtremolo	*	*	*	*	*	*	*	*	*	*	*	*	*
8D\L	.	.	16a/LL	16f#\LL	f	4d\ 4a\ 4ff#\	f	4D\	ſi-	4d\	ſi-	4a\	ſi-	4ff#\	ſi-	4f#/	4dd\
.	.	.	16a/	16f#\	.	.	.	.	.	.	.	.	.	.	.	.	.
8D\	.	.	16a/	16f#\	.	.	.	.	.	.	.	.	.	.	.	.	.
.	.	.	16a/JJ	16f#\JJ	.	.	.	.	.	.	.	.	.	.	.	.	.
*	*	*	*tremolo	*tremolo	*	*	*	*	*	*	*	*	*	*	*	*	*
8D\	.	.	16a/LL	16f#\LL	.	16ff#\LL	.	4D\	-cut	4d\	-cut	4a\	-cut	4ff#\	-cut	4r	4r
.	.	.	16a/	16f#\	.	16ee\	.	.	.	.	.	.	.	.	.	.	.
8D\J	.	.	16a/	16f#\	.	16ff#\	.	.	.	.	.	.	.	.	.	.	.
.	.	.	16a/JJ	16f#\JJ	.	16gg\JJ	.	.	.	.	.	.	.	.	.	.	.
8D\L	.	.	16a/LL	16f#\LL	.	4a\ 4aa\	.	4D\	e-	4d\	e-	4a\	e-	4ff#\	e-	4f#/	4dd\
.	.	.	16a/	16f#\	.	.	.	.	.	.	.	.	.	.	.	.	.
8D\	.	.	16a/	16f#\	.	.	.	.	.	.	.	.	.	.	.	.	.
.	.	.	16a/JJ	16f#\JJ	.	.	.	.	.	.	.	.	.	.	.	.	.
8D\	.	.	16a/LL	16f#\LL	.	4a\ 4aa\	.	4D\	-rat	4d\	-rat	4a\	-rat	4ff#\	-rat	8f#/L	8dd\L
.	.	.	16a/	16f#\	.	.	.	.	.	.	.	.	.	.	.	.	.
8D\J	.	.	16a/	16f#\	.	.	.	.	.	.	.	.	.	.	.	8f#/J	8dd\J
.	.	.	16a/JJ	16f#\JJ	.	.	.	.	.	.	.	.	.	.	.	.	.
!	!	!	!	!	!	!LO:LB:g=original	!	!	!	!	!	!	!	!	!	!	!
=14	=14	=14	=14	=14	=14	=14	=14	=14	=14	=14	=14	=14	=14	=14	=14	=14	=14
*	*	*	*tremolo	*tremolo	*	*	*	*	*	*	*	*	*	*	*	*	*
*	*	*	*2\right	*	*	*	*	*	*	*	*	*	*	*	*	*	*
8D\L	.	.	16a/LL	16f#\LL	.	4a\ 4aa\	.	4D\	in	4d\	in	4a\	in	4ff#\	in	4f#/	4dd\
.	.	.	16a/	16f#\	.	.	.	.	.	.	.	.	.	.	.	.	.
8D\	.	.	16a/	16f#\	.	.	.	.	.	.	.	.	.	.	.	.	.
.	.	.	16a/	16f#\	.	.	.	.	.	.	.	.	.	.	.	.	.
8D\	.	.	16a/	16f#\	.	16ff#\LL	.	4D\	prin-	4d\	prin-	4a\	prin-	4ff#\	prin-	4r	4r
.	.	.	16a/	16f#\	.	16ee\	.	.	.	.	.	.	.	.	.	.	.
!	!	!	!	!	!	!LO:TX:a:t=10:color=gray	!	!	!	!	!	!	!	!	!	!	!
8D\J	.	.	16a/	16f#\	.	16ff#\	.	.	.	.	.	.	.	.	.	.	.
.	.	.	16a/JJ	16f#\JJ	.	16gg\JJ	.	.	.	.	.	.	.	.	.	.	.
8D\L	.	.	16a/LL	16f#\LL	.	4a\ 4aa\	.	4D\	-ci-	4d\	-ci-	4a\	-ci-	4ff#\	-ci-	4f#/	8dd\L
.	.	.	16a/	16f#\	.	.	.	.	.	.	.	.	.	.	.	.	.
8D\	.	.	16a/	16f#\	.	.	.	.	.	.	.	.	.	.	.	.	8dd\
.	.	.	16a/	16f#\	.	.	.	.	.	.	.	.	.	.	.	.	.
8D\	.	.	16a/	16f#\	.	4a\ 4aa\	.	4D\	-pi-	4d\	-pi-	4a\	-pi-	4ff#\	-pi-	8d/L	8dd\
.	.	.	16a/	16f#\	.	.	.	.	.	.	.	.	.	.	.	.	.
8D\J	.	.	16a/	16f#\	.	.	.	.	.	.	.	.	.	.	.	8d/J	8dd\J
.	.	.	16a/JJ	16f#\JJ	.	.	.	.	.	.	.	.	.	.	.	.	.
*	*	*	*Xtremolo	*Xtremolo	*	*	*	*	*	*	*	*	*	*	*	*	*
!	!	!	!LO:LB:g=original	!LO:LB:g=original	!	!	!	!	!	!	!	!	!	!	!	!	!
=15	=15	=15	=15	=15	=15	=15	=15	=15	=15	=15	=15	=15	=15	=15	=15	=15	=15
8D\L	6: 4:	.	16b/LL	16g\LL	.	4.bb\	.	4D\	-o	4d\	-o	4b\	-o	4gg\	-o	4d/	4dd\
.	.	.	16b/	16g\	.	.	.	.	.	.	.	.	.	.	.	.	.
8D\	.	.	16b/	16g\	.	.	.	.	.	.	.	.	.	.	.	.	.
.	.	.	16b/JJ	16g\JJ	.	.	.	.	.	.	.	.	.	.	.	.	.
*	*	*	*tremolo	*tremolo	*	*	*	*	*	*	*	*	*	*	*	*	*
8D\	.	.	16b/LL	16g\LL	.	.	.	4D\	(et)	4d\	(et)	4b\	(et)	4gg\	(et)	8d/L	8dd\L
.	.	.	16b/	16g\	.	.	.	.	.	.	.	.	.	.	.	.	.
8D\J	.	.	16b/	16g\	.	8aa\	.	.	.	.	.	.	.	.	.	8d/J	8dd\J
.	.	.	16b/JJ	16g\JJ	.	.	.	.	.	.	.	.	.	.	.	.	.
8D\L	.	.	16b/LL	16g\LL	.	8bb\L	.	4D\	nunc	4d\	nunc	4b\	nunc	4gg\	nunc	4d/	4dd\
.	.	.	16b/	16g\	.	.	.	.	.	.	.	.	.	.	.	.	.
8D\	.	.	16b/	16g\	.	8ccc#\	.	.	.	.	.	.	.	.	.	.	.
.	.	.	16b/	16g\	.	.	.	.	.	.	.	.	.	.	.	.	.
8D\	.	.	16b/	16g\	.	8ddd\	.	4D\	(et)	4d\	(et)	4b\	(et)	4gg\	(et)	4d/	4dd\
.	.	.	16b/	16g\	.	.	.	.	.	.	.	.	.	.	.	.	.
8D\J	.	.	16b/	16g\	.	8bb\J	.	.	.	.	.	.	.	.	.	.	.
.	.	.	16b/JJ	16g\JJ	.	.	.	.	.	.	.	.	.	.	.	.	.
!	!	!	!	!	!	!	!	!LO:LB:g=original	!	!LO:LB:g=original	!	!LO:LB:g=original	!	!	!	!	!
=16	=16	=16	=16	=16	=16	=16	=16	=16	=16	=16	=16	=16	=16	=16	=16	=16	=16
*	*	*	*	*	*	*	*	*	*	*2\right	*	*	*	*	*	*	*
8D\L	.	.	16b/LL	16g\LL	.	4.bb\	.	2D\	ſem-	2d\	ſem-	2b\	ſem-	2gg\	ſem-	4d/	4dd\
.	.	.	16b/	16g\	.	.	.	.	.	.	.	.	.	.	.	.	.
8D\	.	.	16b/	16g\	.	.	.	.	.	.	.	.	.	.	.	.	.
.	.	.	16b/	16g\	.	.	.	.	.	.	.	.	.	.	.	.	.
8D\	.	.	16b/	16g\	.	.	.	.	.	.	.	.	.	.	.	8d/L	8dd\L
.	.	.	16b/	16g\	.	.	.	.	.	.	.	.	.	.	.	.	.
8D\J	.	.	16b/	16g\	.	16aa\LL	.	.	.	.	.	.	.	.	.	8d/J	8dd\J
.	.	.	16b/JJ	16g\JJ	.	16bb\JJ	.	.	.	.	.	.	.	.	.	.	.
8D\L	5 3	.	16a/LL	16f#\LL	.	4aa\	.	2D\	-per	2d\	-per	2a\	-per	2ff#\	-per	4d/	4dd\
.	.	.	16a/	16f#\	.	.	.	.	.	.	.	.	.	.	.	.	.
8D\	.	.	16a/	16f#\	.	.	.	.	.	.	.	.	.	.	.	.	.
.	.	.	16a/	16f#\	.	.	.	.	.	.	.	.	.	.	.	.	.
8D\	.	.	16a/	16f#\	.	4ff#\	.	.	.	.	.	.	.	.	.	4r	4r
.	.	.	16a/	16f#\	.	.	.	.	.	.	.	.	.	.	.	.	.
8D\J	.	.	16a/	16f#\	.	.	.	.	.	.	.	.	.	.	.	.	.
.	.	.	16a/JJ	16f#\JJ	.	.	.	.	.	.	.	.	.	.	.	.	.
!LO:LB:g=original	!	!	!	!	!	!	!	!	!	!	!	!	!	!	!	!	!
=17	=17	=17	=17	=17	=17	=17	=17	=17	=17	=17	=17	=17	=17	=17	=17	=17	=17
*Xtremolo	*	*	*	*	*	*	*	*	*	*	*	*	*	*	*	*	*
8C#/L	6 5	.	16a/LL	16e\LL	.	4.ee\	.	2C#/	(et)	2e\	(et)	2a\	(et)	2ee\	(et)	4a/	4ee\
.	.	.	16a/	16e\	.	.	.	.	.	.	.	.	.	.	.	.	.
8C#/	.	.	16a/	16e\	.	.	.	.	.	.	.	.	.	.	.	.	.
.	.	.	16a/	16e\	.	.	.	.	.	.	.	.	.	.	.	.	.
8C#/	.	.	16a/	16e\	.	.	.	.	.	.	.	.	.	.	.	8a/L	8ee\L
.	.	.	16a/	16e\	.	.	.	.	.	.	.	.	.	.	.	.	.
8C#/J	.	.	16a/	16e\	.	16dd\LL	.	.	.	.	.	.	.	.	.	8a/J	8ee\J
.	.	.	16a/JJ	16e\JJ	.	16ee\JJ	.	.	.	.	.	.	.	.	.	.	.
*tremolo	*	*	*	*	*	*	*	*	*	*	*	*	*	*	*	*	*
8D\L	.	.	16a/LL	16f#\LL	.	8ff#\L	.	2D\	in	2d\	in	2a\	in	2ff#\	in	4f#/	4dd\
.	.	.	16a/	16f#\	.	.	.	.	.	.	.	.	.	.	.	.	.
8D\	.	.	16a/	16f#\	.	8gg\	.	.	.	.	.	.	.	.	.	.	.
.	.	.	16a/	16f#\	.	.	.	.	.	.	.	.	.	.	.	.	.
8D\	.	.	16a/	16f#\	.	8aa\	.	.	.	.	.	.	.	.	.	4r	4r
.	.	.	16a/	16f#\	.	.	.	.	.	.	.	.	.	.	.	.	.
8D\J	.	.	16a/	16f#\	.	8ff#\J	.	.	.	.	.	.	.	.	.	.	.
.	.	.	16a/JJ	16f#\JJ	.	.	.	.	.	.	.	.	.	.	.	.	.
!	!	!	!	!	!	!	!	!	!	!	!	!	!	!LO:LB:g=original	!	!	!LO:LB:g=original
=18	=18	=18	=18	=18	=18	=18	=18	=18	=18	=18	=18	=18	=18	=18	=18	=18	=18
8C#/L	6 5	.	16a/LL	16e\LL	.	4.ee\	.	2C#/	ſae-	2e\	ſae-	2a\	ſae-	2ee\	ſae-	4a/	4ee\
.	.	.	16a/	16e\	.	.	.	.	.	.	.	.	.	.	.	.	.
8C#/	.	.	16a/	16e\	.	.	.	.	.	.	.	.	.	.	.	.	.
.	.	.	16a/	16e\	.	.	.	.	.	.	.	.	.	.	.	.	.
8C#/	.	.	16a/	16e\	.	.	.	.	.	.	.	.	.	.	.	8a/L	8ee\L
.	.	.	16a/	16e\	.	.	.	.	.	.	.	.	.	.	.	.	.
8C#/J	.	.	16a/	16e\	.	16dd\LL	.	.	.	.	.	.	.	.	.	8a/J	8ee\J
.	.	.	16a/JJ	16e\JJ	.	16ee\JJ	.	.	.	.	.	.	.	.	.	.	.
!	!	!	!	!	!LO:LB:g=original	!	!	!	!	!	!	!	!	!	!	!	!
8D\L	.	.	16a/LL	16f#\LL	.	4ff#\	.	4D\	-cu-	4d\	-cu-	4a\	-cu-	4ff#\	-cu-	4f#/	4dd\
.	.	.	16a/	16f#\	.	.	.	.	.	.	.	.	.	.	.	.	.
8D\	.	.	16a/	16f#\	.	.	.	.	.	.	.	.	.	.	.	.	.
.	.	.	16a/	16f#\	.	.	.	.	.	.	.	.	.	.	.	.	.
8D\	.	.	16a/	16f#\	.	4aa\	.	4D\	-la	4d\	-la	4a\	-la	4ff#\	-la	4d/	4dd\
.	.	.	16a/	16f#\	.	.	.	.	.	.	.	.	.	.	.	.	.
8D\J	.	.	16a/	16f#\	.	.	.	.	.	.	.	.	.	.	.	.	.
.	.	.	16a/JJ	16f#\JJ	.	.	.	.	.	.	.	.	.	.	.	.	.
!	!	!	!	!	!	!	!	!	!	!	!	!	!	!	!	!LO:LB:g=original	!
=19	=19	=19	=19	=19	=19	=19	=19	=19	=19	=19	=19	=19	=19	=19	=19	=19	=19
8D\L	6 4	.	16b/LL	16g\LL	.	8bb\L	.	2G\	ſae-	2d\	ſae-	2b\	ſae-	2gg\	ſae-	4d/	4dd\
.	.	.	16b/	16g\	.	.	.	.	.	.	.	.	.	.	.	.	.
8D\	.	.	16b/	16g\	.	8gg\	.	.	.	.	.	.	.	.	.	.	.
.	.	.	16b/	16g\	.	.	.	.	.	.	.	.	.	.	.	.	.
8D\	.	.	16b/	16g\	.	8ddd\	.	.	.	.	.	.	.	.	.	4r	4r
.	.	.	16b/	16g\	.	.	.	.	.	.	.	.	.	.	.	.	.
8D\J	.	.	16b/	16g\	.	8bb\J	.	.	.	.	.	.	.	.	.	.	.
.	.	.	16b/JJ	16g\JJ	.	.	.	.	.	.	.	.	.	.	.	.	.
8D\L	5 3	.	16a/LL	16f#\LL	.	8aa\L	.	2F#\	-cu-	2d\	-cu-	2a\	-cu-	2ff#\	-cu-	4d/	4dd\
.	.	.	16a/	16f#\	.	.	.	.	.	.	.	.	.	.	.	.	.
8D\	.	.	16a/	16f#\	.	8ff#\	.	.	.	.	.	.	.	.	.	.	.
.	.	.	16a/	16f#\	.	.	.	.	.	.	.	.	.	.	.	.	.
8D\	.	.	16a/	16f#\	.	8ddd\	.	.	.	.	.	.	.	.	.	4dd\	4ff#\
.	.	.	16a/	16f#\	.	.	.	.	.	.	.	.	.	.	.	.	.
8D\J	.	.	16a/	16f#\	.	8aa\J	.	.	.	.	.	.	.	.	.	.	.
.	.	.	16a/JJ	16f#\JJ	.	.	.	.	.	.	.	.	.	.	.	.	.
*	*	*	*v	*v	*	*	*	*	*	*	*	*	*	*	*	*	*
=20	=20	=20	=20	=20	=20	=20	=20	=20	=20	=20	=20	=20	=20	=20	=20	=20
8G\L	6 x	.	16b\LL	.	8gg\L	.	4G\	-lo-	4B\	-lo-	4g\	-lo-	4ee\	-lo-	4ee\	4gg\
.	.	.	16b\	.	.	.	.	.	.	.	.	.	.	.	.	.
8G\	.	.	16b\	.	8ee\	.	.	.	.	.	.	.	.	.	.	.
.	.	.	16b\JJ	.	.	.	.	.	.	.	.	.	.	.	.	.
8G\	.	.	16ee\LL	.	8bb\	.	4G\	-rum	4B\	-rum	4g\	-rum	4ee\	-rum	4ee\	4gg\
.	.	.	16ee\	.	.	.	.	.	.	.	.	.	.	.	.	.
8G\J	.	.	16ee\	.	8gg\J	.	.	.	.	.	.	.	.	.	.	.
.	.	.	16ee\JJ	.	.	.	.	.	.	.	.	.	.	.	.	.
*Xtremolo	*	*	*Xtremolo	*	*	*	*	*	*	*	*	*	*	*	*	*
!	!	!	!LO:LB:g=original	!	!	!	!	!	!	!	!	!	!	!	!	!
!!mixed beam:problem
!LO:TX:t=P:problem:mixed beam	!	!	!	!	!	!	!	!	!	!	!	!	!	!	!	!
8A\L	4 x	.	16dd\LL	.	8gg\L	.	4A\	a-	2A\	a-	4f#\	a-	4dd\	a-	4dd\	4ff#\
.	.	.	16dd\	.	.	.	.	.	.	.	.	.	.	.	.	.
8A\	.	.	16dd\	.	8ff#\	.	.	.	.	.	.	.	.	.	.	.
.	.	.	16dd\JJ	.	.	.	.	.	.	.	.	.	.	.	.	.
*	*	*	*tremolo	*	*	*	*	*	*	*	*	*	*	*	*	*
8AA/	x 3	.	16cc#\LL	.	8ff#\	.	4AA/	.	.	.	4e\	.	4cc#\	.	4a/	4ee\
.	.	.	16cc#\	.	.	.	.	.	.	.	.	.	.	.	.	.
8AA/J	.	.	16cc#\	.	8ee\J	.	.	.	.	.	.	.	.	.	.	.
.	.	.	16cc#\JJ	.	.	.	.	.	.	.	.	.	.	.	.	.
!	!	!	!	!	!	!	!LO:LB:g=original	!	!	!	!LO:LB:g=original	!	!	!	!	!
=21	=21	=21	=21	=21	=21	=21	=21	=21	=21	=21	=21	=21	=21	=21	=21	=21
*	*	*	*^	*	*	*	*	*	*	*	*	*	*	*	*	*
*tremolo	*	*	*	*	*	*	*	*	*	*	*	*	*	*	*	*	*2\right
8D\L	.	.	16a/LL	16f#\LL	.	4d\ 4a\ 4ff#\	.	2D\	-men	2A\	men	2f#\	-men	2dd\	-men	2f#/	2dd\
.	.	.	16a/	16f#\	.	.	.	.	.	.	.	.	.	.	.	.	.
8D\	.	.	16a/	16f#\	.	.	.	.	.	.	.	.	.	.	.	.	.
.	.	.	16a/	16f#\	.	.	.	.	.	.	.	.	.	.	.	.	.
8D\	.	.	16a/	16f#\	.	16ff#\LL	.	.	.	.	.	.	.	.	.	.	.
.	.	.	16a/	16f#\	.	16ee\	.	.	.	.	.	.	.	.	.	.	.
8D\J	.	.	16a/	16f#\	.	16ff#\	.	.	.	.	.	.	.	.	.	.	.
.	.	.	16a/JJ	16f#\JJ	.	16gg\JJ	.	.	.	.	.	.	.	.	.	.	.
!	!	!	!	!	!	!	!	!	!	!LO:LB:g=original	!	!	!	!	!	!	!
*	*	*	*	*	*	*	*	*	*	*	*	*	*	*	*	*2\right	*
8d\L	.	.	16a/LL	16f#\LL	.	8aa\L	.	4d\	(et)	4d\	(et)	4a\	(et)	4ff#\	(et)	2dd\	2ff#\
.	.	.	16a/	16f#\	.	.	.	.	.	.	.	.	.	.	.	.	.
8d\	.	.	16a/	16f#\	.	8ff#\	.	.	.	.	.	.	.	.	.	.	.
.	.	.	16a/	16f#\	.	.	.	.	.	.	.	.	.	.	.	.	.
8d\	.	.	16a/	16f#\	.	8aa\	.	4d\	in	4d\	in	4a\	in	4ff#\	in	.	.
.	.	.	16a/	16f#\	.	.	.	.	.	.	.	.	.	.	.	.	.
8d\J	.	.	16a/	16f#\	.	8ff#\J	.	.	.	.	.	.	.	.	.	.	.
.	.	.	16a/JJ	16f#\JJ	.	.	.	.	.	.	.	.	.	.	.	.	.
=22	=22	=22	=22	=22	=22	=22	=22	=22	=22	=22	=22	=22	=22	=22	=22	=22	=22
8c#\L	6: x	.	16a/LL	16e\LL	.	4aa\	.	2c#\	ſae-	2e\	ſae-	2a\	ſae-	2ee\	ſae-	1a	1ee
.	.	.	16a/	16e\	.	.	.	.	.	.	.	.	.	.	.	.	.
8c#\	.	.	16a/	16e\	.	.	.	.	.	.	.	.	.	.	.	.	.
.	.	.	16a/	16e\	.	.	.	.	.	.	.	.	.	.	.	.	.
8c#\	.	.	16a/	16e\	.	16aa\LL	.	.	.	.	.	.	.	.	.	.	.
.	.	.	16a/	16e\	.	16gg\	.	.	.	.	.	.	.	.	.	.	.
8c#\J	.	.	16a/	16e\	.	16aa\	.	.	.	.	.	.	.	.	.	.	.
.	.	.	16a/JJ	16e\JJ	.	16bb\JJ	.	.	.	.	.	.	.	.	.	.	.
!	!	!	!	!	!	!LO:LB:g=original	!	!	!	!	!	!	!	!	!	!	!
8c#\L	.	.	16a/LL	16e\LL	.	8aa\L	.	4c#\	-cu-	4e\	-cu-	4a\	-cu-	4ee\	-cu-	.	.
.	.	.	16a/	16e\	.	.	.	.	.	.	.	.	.	.	.	.	.
8c#\	.	.	16a/	16e\	.	8ee\	.	.	.	.	.	.	.	.	.	.	.
.	.	.	16a/	16e\	.	.	.	.	.	.	.	.	.	.	.	.	.
8c#\	.	.	16a/	16e\	.	8aa\	.	4c#\	-la	4e\	-la	4a\	-la	4ee\	-la	.	.
.	.	.	16a/	16e\	.	.	.	.	.	.	.	.	.	.	.	.	.
8c#\J	.	.	16a/	16e\	.	8ee\J	.	.	.	.	.	.	.	.	.	.	.
.	.	.	16a/JJ	16e\JJ	.	.	.	.	.	.	.	.	.	.	.	.	.
*Xtremolo	*	*	*	*	*	*	*	*	*	*	*	*	*	*	*	*	*
*	*	*	*v	*v	*	*	*	*	*	*	*	*	*	*	*	*	*
!LO:LB:g=original	!	!	!	!	!	!	!	!	!	!	!	!	!LO:LB:g=original	!	!	!
=23	=23	=23	=23	=23	=23	=23	=23	=23	=23	=23	=23	=23	=23	=23	=23	=23
8B\L	6 x	.	16g#X/LL	.	4dd\	.	2B\	ſae-	2e\	ſae-	2g#X\	ſae-	2dd\	ſae-	1ee	1ee
.	.	.	16g#X/	.	.	.	.	.	.	.	.	.	.	.	.	.
8B\	.	.	16g#X/	.	.	.	.	.	.	.	.	.	.	.	.	.
.	.	.	16g#X/	.	.	.	.	.	.	.	.	.	.	.	.	.
8B\	.	.	16g#X/	.	16gg#X\LL	.	.	.	.	.	.	.	.	.	.	.
.	.	.	16g#X/	.	16ff#\	.	.	.	.	.	.	.	.	.	.	.
8B\J	.	.	16g#X/	.	16gg#\	.	.	.	.	.	.	.	.	.	.	.
.	.	.	16g#X/JJ	.	16aa\JJ	.	.	.	.	.	.	.	.	.	.	.
*tremolo	*	*	*	*	*	*	*	*	*	*	*	*	*	*	*	*
8E\L	# x	.	16g#/LL	.	8bb\L	.	2E\	-cu-	2e\	-cu-	2g#\	-cu-	2dd\	-cu-	.	.
.	.	.	16g#/	.	.	.	.	.	.	.	.	.	.	.	.	.
8E\	.	.	16g#/	.	8gg#X\	.	.	.	.	.	.	.	.	.	.	.
.	.	.	16g#/	.	.	.	.	.	.	.	.	.	.	.	.	.
8E\	.	.	16g#/	.	8ee\	.	.	.	.	.	.	.	.	.	.	.
.	.	.	16g#/	.	.	.	.	.	.	.	.	.	.	.	.	.
8E\J	.	.	16g#/	.	8dd\J	.	.	.	.	.	.	.	.	.	.	.
.	.	.	16g#/JJ	.	.	.	.	.	.	.	.	.	.	.	.	.
=24	=24	=24	=24	=24	=24	=24	=24	=24	=24	=24	=24	=24	=24	=24	=24	=24
*	*	*	*^	*	*	*	*	*	*	*	*	*	*	*	*	*
8A\L	.	.	16e/LL	2ryy	.	8cc#\L	.	2A\	-lo-	2e\	-lo-	2a\	-lo-	2cc#\	-lo-	1a	1ee
.	.	.	16e/	.	.	.	.	.	.	.	.	.	.	.	.	.	.
8A\	.	.	16e/	.	.	8a\	.	.	.	.	.	.	.	.	.	.	.
.	.	.	16e/	.	.	.	.	.	.	.	.	.	.	.	.	.	.
8A\	.	.	16e/	.	.	8cc#\	.	.	.	.	.	.	.	.	.	.	.
.	.	.	16e/	.	.	.	.	.	.	.	.	.	.	.	.	.	.
8A\J	.	.	16e/	.	.	8ee\J	.	.	.	.	.	.	.	.	.	.	.
.	.	.	16e/JJ	.	.	.	.	.	.	.	.	.	.	.	.	.	.
!	!	!	!	!	!	!LO:TX:a:rj:t=20:color=gray	!	!	!	!	!	!	!	!	!	!	!
8c#\L	6 x	.	16a/LL	16e\LL	.	8aa\L	.	2c#\	-rum	2e\	-rum	2a\	-rum	2ee\	-rum	.	.
.	.	.	16a/	16e\	.	.	.	.	.	.	.	.	.	.	.	.	.
8c#\	.	.	16a/	16e\	.	8gg\	.	.	.	.	.	.	.	.	.	.	.
.	.	.	16a/	16e\	.	.	.	.	.	.	.	.	.	.	.	.	.
8c#\	.	.	16a/	16e\	.	8ff#\	.	.	.	.	.	.	.	.	.	.	.
.	.	.	16a/	16e\	.	.	.	.	.	.	.	.	.	.	.	.	.
8c#\J	.	.	16a/	16e\	.	8ee\J	.	.	.	.	.	.	.	.	.	.	.
.	.	.	16a/JJ	16e\JJ	.	.	.	.	.	.	.	.	.	.	.	.	.
=25	=25	=25	=25	=25	=25	=25	=25	=25	=25	=25	=25	=25	=25	=25	=25	=25	=25
*	*	*	*	*	*	*	*	*	*	*	*ij	*	*	*	*ij	*	*
8d\L	.	.	16a/LL	16f#\LL	.	4ff#\	.	2d\	ſae-	2d\	ſae-	2a\	ſae-	2ff#\	ſae-	1dd	1ff#
.	.	.	16a/	16f#\	.	.	.	.	.	.	.	.	.	.	.	.	.
8d\	.	.	16a/	16f#\	.	.	.	.	.	.	.	.	.	.	.	.	.
.	.	.	16a/	16f#\	.	.	.	.	.	.	.	.	.	.	.	.	.
8d\	.	.	16a/	16f#\	.	16ff#\LL	.	.	.	.	.	.	.	.	.	.	.
.	.	.	16a/	16f#\	.	16ee\	.	.	.	.	.	.	.	.	.	.	.
8d\J	.	.	16a/	16f#\	.	16ff#\	.	.	.	.	.	.	.	.	.	.	.
.	.	.	16a/JJ	16f#\JJ	.	16gg#X\JJ	.	.	.	.	.	.	.	.	.	.	.
8d\L	.	.	16a/LL	16f#\LL	.	8aa\L	.	2d\	-cu-	2d\	-cu-	2a\	-cu-	2ff#\	-cu-	.	.
.	.	.	16a/	16f#\	.	.	.	.	.	.	.	.	.	.	.	.	.
8d\	.	.	16a/	16f#\	.	8ff#\	.	.	.	.	.	.	.	.	.	.	.
.	.	.	16a/	16f#\	.	.	.	.	.	.	.	.	.	.	.	.	.
8d\	.	.	16a/	16f#\	.	8aa\	.	.	.	.	.	.	.	.	.	.	.
.	.	.	16a/	16f#\	.	.	.	.	.	.	.	.	.	.	.	.	.
8d\J	.	.	16a/	16f#\	.	8ff#\J	.	.	.	.	.	.	.	.	.	.	.
.	.	.	16a/JJ	16f#\JJ	.	.	.	.	.	.	.	.	.	.	.	.	.
!	!	!	!	!	!	!	!	!LO:LB:g=original	!	!	!	!LO:LB:g=original	!	!	!	!	!
=26	=26	=26	=26	=26	=26	=26	=26	=26	=26	=26	=26	=26	=26	=26	=26	=26	=26
*	*	*	*tremolo	*tremolo	*	*	*	*	*	*	*	*	*	*	*	*	*
8c#\L	6: x	.	16a/LL	16e\LL	.	4aa\	.	2c#\	-lo-	2e\	-lo-	2a\	-lo-	2ee\	-lo-	1a	1ee
.	.	.	16a/	16e\	.	.	.	.	.	.	.	.	.	.	.	.	.
8c#\	.	.	16a/	16e\	.	.	.	.	.	.	.	.	.	.	.	.	.
.	.	.	16a/	16e\	.	.	.	.	.	.	.	.	.	.	.	.	.
!	!	!	!	!	!	!LO:LB:g=original	!	!	!	!	!	!	!	!	!	!	!
8c#\	.	.	16a/	16e\	.	16aa\LL	.	.	.	.	.	.	.	.	.	.	.
.	.	.	16a/	16e\	.	16gg#X\	.	.	.	.	.	.	.	.	.	.	.
8c#\J	.	.	16a/	16e\	.	16aa\	.	.	.	.	.	.	.	.	.	.	.
.	.	.	16a/JJ	16e\JJ	.	16bb\JJ	.	.	.	.	.	.	.	.	.	.	.
8c#\L	.	.	16a/LL	16e\LL	.	8aa\L	.	2c#\	-rum	2e\	-rum	2a\	-rum	2ee\	-rum	.	.
.	.	.	16a/	16e\	.	.	.	.	.	.	.	.	.	.	.	.	.
8c#\	.	.	16a/	16e\	.	8ee\	.	.	.	.	.	.	.	.	.	.	.
.	.	.	16a/	16e\	.	.	.	.	.	.	.	.	.	.	.	.	.
8c#\	.	.	16a/	16e\	.	8aa\	.	.	.	.	.	.	.	.	.	.	.
.	.	.	16a/	16e\	.	.	.	.	.	.	.	.	.	.	.	.	.
8c#\J	.	.	16a/	16e\	.	8ee\J	.	.	.	.	.	.	.	.	.	.	.
.	.	.	16a/JJ	16e\JJ	.	.	.	.	.	.	.	.	.	.	.	.	.
*	*	*	*Xtremolo	*Xtremolo	*	*	*	*	*	*	*Xij	*	*	*	*Xij	*	*
*	*	*	*v	*v	*	*	*	*	*	*	*	*	*	*	*	*	*
!	!	!	!	!	!	!	!	!	!	!	!LO:LB:g=original	!	!	!	!	!LO:LB:g=original
=27	=27	=27	=27	=27	=27	=27	=27	=27	=27	=27	=27	=27	=27	=27	=27	=27
8d\L	6 x	.	4b\	.	4ff#\	.	2d\	a-	2f#\	a-	2b\	a-	2dd\	a-	2dd\	2ff#\
8d\	.	.	.	.	.	.	.	.	.	.	.	.	.	.	.	.
8d\	.	.	8dd\L	.	8ff#\L	.	.	.	.	.	.	.	.	.	.	.
8d\J	.	.	16cc#\L	.	16ee\L	.	.	.	.	.	.	.	.	.	.	.
.	.	.	16b\JJ	.	16dd\JJ	.	.	.	.	.	.	.	.	.	.	.
*Xtremolo	*	*	*	*	*	*	*	*	*	*	*	*	*	*	*	*
8e\L	4 x	.	4a/	.	4cc#\	.	4e\	.	2e\	.	4a\	.	4cc#\	.	4ee\	4ee\
8e\	.	.	.	.	.	.	.	.	.	.	.	.	.	.	.	.
8E\	# x	.	4g#X/	.	4b\	.	4E\	.	.	.	4g#X\	.	4b\	.	4ee\	4ee\
8E\J	.	.	.	.	.	.	.	.	.	.	.	.	.	.	.	.
=28	=28	=28	=28	=28	=28	=28	=28	=28	=28	=28	=28	=28	=28	=28	=28	=28
*tremolo	*	*	*	*	*	*	*	*	*	*	*	*	*	*	*	*
8A\L	.	.	16cc#\LL	.	4cc#\	.	2A\	-men	2e\	-men	2a\	-men	2cc#\	-men	4a/	4ee\
.	.	.	16cc#\	.	.	.	.	.	.	.	.	.	.	.	.	.
8A\	.	.	16cc#\	.	.	.	.	.	.	.	.	.	.	.	.	.
.	.	.	16cc#\JJ	.	.	.	.	.	.	.	.	.	.	.	.	.
*	*	*	*tremolo	*	*	*	*	*	*	*	*	*	*	*	*	*
8A\	.	.	16cc#\LL	.	16ee\LL	.	.	.	.	.	.	.	.	.	4r	4r
.	.	.	16cc#\	.	16dd\	.	.	.	.	.	.	.	.	.	.	.
8A\J	.	.	16cc#\	.	16ee\	.	.	.	.	.	.	.	.	.	.	.
.	.	.	16cc#\JJ	.	16ff#\JJ	.	.	.	.	.	.	.	.	.	.	.
8A\L	.	.	16cc#\LL	.	4ee\	.	4A\	ſi-	4A\	ſi-	4e\	ſi-	4cc#\	ſi-	4a/	4a/
.	.	.	16cc#\	.	.	.	.	.	.	.	.	.	.	.	.	.
8A\	.	.	16cc#\	.	.	.	.	.	.	.	.	.	.	.	.	.
.	.	.	16cc#\	.	.	.	.	.	.	.	.	.	.	.	.	.
8A\	.	.	16cc#\	.	4aa\	.	4A\	-cut	4A\	-cut	4e\	-cut	4cc#\	-cut	8a/L	8a/L
.	.	.	16cc#\	.	.	.	.	.	.	.	.	.	.	.	.	.
8A\J	.	.	16cc#\	.	.	.	.	.	.	.	.	.	.	.	8a/J	8a/J
.	.	.	16cc#\JJ	.	.	.	.	.	.	.	.	.	.	.	.	.
*Xtremolo	*	*	*	*	*	*	*	*	*	*	*	*	*	*	*	*
!LO:LB:g=original	!	!	!	!	!	!	!	!	!	!	!	!	!LO:LB:g=original	!	!	!
=29	=29	=29	=29	=29	=29	=29	=29	=29	=29	=29	=29	=29	=29	=29	=29	=29
8A\L	6: 4:	.	16dd\LL	.	4ff#\	.	2A\	e-	2A\	e-	2f#\	e-	2dd\	e-	4a/	4a/
.	.	.	16dd\	.	.	.	.	.	.	.	.	.	.	.	.	.
8A\	.	.	16dd\	.	.	.	.	.	.	.	.	.	.	.	.	.
.	.	.	16dd\	.	.	.	.	.	.	.	.	.	.	.	.	.
8A\	.	.	16dd\	.	16ff#\LL	.	.	.	.	.	.	.	.	.	4r	4r
.	.	.	16dd\	.	16ee\	.	.	.	.	.	.	.	.	.	.	.
8A\J	.	.	16dd\	.	16ff#\	.	.	.	.	.	.	.	.	.	.	.
.	.	.	16dd\JJ	.	16gg\JJ	.	.	.	.	.	.	.	.	.	.	.
*tremolo	*	*	*	*	*	*	*	*	*	*	*	*	*	*	*	*
8A\L	.	.	16dd\LL	.	4ff#\	.	2A\	-rat	2A\	-rat	2f#\	-rat	2dd\	-rat	4a/	4a/
.	.	.	16dd\	.	.	.	.	.	.	.	.	.	.	.	.	.
8A\	.	.	16dd\	.	.	.	.	.	.	.	.	.	.	.	.	.
.	.	.	16dd\	.	.	.	.	.	.	.	.	.	.	.	.	.
8A\	.	.	16dd\	.	8r	.	.	.	.	.	.	.	.	.	8a/L	8a/L
.	.	.	16dd\	.	.	.	.	.	.	.	.	.	.	.	.	.
8A\J	.	.	16dd\	.	8ff#\	.	.	.	.	.	.	.	.	.	8a/J	8a/J
.	.	.	16dd\JJ	.	.	.	.	.	.	.	.	.	.	.	.	.
!	!	!	!	!	!LO:LB:g=original	!	!	!	!	!	!	!	!	!	!	!
=30	=30	=30	=30	=30	=30	=30	=30	=30	=30	=30	=30	=30	=30	=30	=30	=30
8A\L	#7r: 2:	.	16b\LL	.	4gg#X\	.	2A\	in	2A\	in	2g#X\	in	2b\	in	4a/	4a/
.	.	.	16b\	.	.	.	.	.	.	.	.	.	.	.	.	.
8A\	.	.	16b\	.	.	.	.	.	.	.	.	.	.	.	.	.
.	.	.	16b\	.	.	.	.	.	.	.	.	.	.	.	.	.
8A\	.	.	16b\	.	16gg#\LL	.	.	.	.	.	.	.	.	.	4r	4r
.	.	.	16b\	.	16aa\	.	.	.	.	.	.	.	.	.	.	.
8A\J	.	.	16b\	.	16gg#\	.	.	.	.	.	.	.	.	.	.	.
.	.	.	16b\JJ	.	16ff#\JJ	.	.	.	.	.	.	.	.	.	.	.
8A\L	.	.	16b\LL	.	8gg#\L	.	2A\	prin-	2A\	prin-	2g#\	prin-	2b\	prin-	4a/	4a/
.	.	.	16b\	.	.	.	.	.	.	.	.	.	.	.	.	.
8A\	.	.	16b\	.	8bb\	.	.	.	.	.	.	.	.	.	.	.
.	.	.	16b\	.	.	.	.	.	.	.	.	.	.	.	.	.
8A\	.	.	16b\	.	8ee\	.	.	.	.	.	.	.	.	.	4a/	4a/
.	.	.	16b\	.	.	.	.	.	.	.	.	.	.	.	.	.
8A\J	.	.	16b\	.	8gg#\J	.	.	.	.	.	.	.	.	.	.	.
.	.	.	16b\JJ	.	.	.	.	.	.	.	.	.	.	.	.	.
!	!	!	!	!	!	!	!LO:LB:g=original	!	!	!	!LO:LB:g=original	!	!	!	!LO:LB:g=original	!
=31	=31	=31	=31	=31	=31	=31	=31	=31	=31	=31	=31	=31	=31	=31	=31	=31
8A\L	X 3:	.	16cc#\LL	.	4aa\	.	4.A\	-ci-	4.A\	-ci-	4.a\	-ci-	4.cc#\	-ci-	4a/	4a/
.	.	.	16cc#\	.	.	.	.	.	.	.	.	.	.	.	.	.
8A\	.	.	16cc#\	.	.	.	.	.	.	.	.	.	.	.	.	.
.	.	.	16cc#\	.	.	.	.	.	.	.	.	.	.	.	.	.
8A\	.	.	16cc#\	.	16aa\LL	.	.	.	.	.	.	.	.	.	4a/	4a/
.	.	.	16cc#\	.	16gg\	.	.	.	.	.	.	.	.	.	.	.
8A\J	.	.	16cc#\	.	16aa\	.	8A\	-pi-	8A\	-pi-	8a\	-pi-	8cc#\	-pi-	.	.
.	.	.	16cc#\JJ	.	16bb\JJ	.	.	.	.	.	.	.	.	.	.	.
8A\L	.	.	16cc#\LL	.	4ccc#\	.	2A\	-o	2A\	-o	2a\	-o	2cc#\	-o	4a/	4a/
.	.	.	16cc#\	.	.	.	.	.	.	.	.	.	.	.	.	.
8A\	.	.	16cc#\	.	.	.	.	.	.	.	.	.	.	.	.	.
.	.	.	16cc#\	.	.	.	.	.	.	.	.	.	.	.	.	.
8A\	.	.	16cc#\	.	8r	.	.	.	.	.	.	.	.	.	8a/L	8a/L
.	.	.	16cc#\	.	.	.	.	.	.	.	.	.	.	.	.	.
8A\J	.	.	16cc#\	.	8aa\	.	.	.	.	.	.	.	.	.	8a/J	8a/J
.	.	.	16cc#\JJ	.	.	.	.	.	.	.	.	.	.	.	.	.
!	!	!	!	!	!	!	!	!	!	!	!LO:LB:g=original	!	!	!	!	!
=32	=32	=32	=32	=32	=32	=32	=32	=32	=32	=32	=32	=32	=32	=32	=32	=32
8A\L	.	.	16cc#\LL	.	4ee\	.	2A\	ſi-	2A\	ſi-	2e\	ſi-	2cc#\	ſi-	4a/	4a/
.	.	.	16cc#\	.	.	.	.	.	.	.	.	.	.	.	.	.
8A\	.	.	16cc#\	.	.	.	.	.	.	.	.	.	.	.	.	.
.	.	.	16cc#\	.	.	.	.	.	.	.	.	.	.	.	.	.
8A\	.	.	16cc#\	.	16ee\LL	.	.	.	.	.	.	.	.	.	4r	4r
.	.	.	16cc#\	.	16dd\	.	.	.	.	.	.	.	.	.	.	.
8A\J	.	.	16cc#\	.	16ee\	.	.	.	.	.	.	.	.	.	.	.
.	.	.	16cc#\JJ	.	16ff#\JJ	.	.	.	.	.	.	.	.	.	.	.
8A\L	.	.	16cc#\LL	.	4ee\	.	2A\	-cut	2A\	-cut	2e\	-cut	2cc#\	-cut	4a/	4a/
.	.	.	16cc#\	.	.	.	.	.	.	.	.	.	.	.	.	.
8A\	.	.	16cc#\	.	.	.	.	.	.	.	.	.	.	.	.	.
.	.	.	16cc#\	.	.	.	.	.	.	.	.	.	.	.	.	.
8A\	.	.	16cc#\	.	4aa\	.	.	.	.	.	.	.	.	.	8a/L	8a/L
.	.	.	16cc#\	.	.	.	.	.	.	.	.	.	.	.	.	.
8A\J	.	.	16cc#\	.	.	.	.	.	.	.	.	.	.	.	8a/J	8a/J
.	.	.	16cc#\JJ	.	.	.	.	.	.	.	.	.	.	.	.	.
*	*	*	*Xtremolo	*	*	*	*	*	*	*	*	*	*	*	*	*
!	!	!	!LO:LB:g=original	!	!	!	!	!	!	!	!	!	!	!	!	!LO:LB:g=original
=33	=33	=33	=33	=33	=33	=33	=33	=33	=33	=33	=33	=33	=33	=33	=33	=33
8A\L	6: 4:	.	16dd\LL	.	4ff#\	.	2A\	e-	2A\	e-	2f#\	e-	2dd\	e-	4a/	4a/
.	.	.	16dd\	.	.	.	.	.	.	.	.	.	.	.	.	.
8A\	.	.	16dd\	.	.	.	.	.	.	.	.	.	.	.	.	.
.	.	.	16dd\JJ	.	.	.	.	.	.	.	.	.	.	.	.	.
*	*	*	*tremolo	*	*	*	*	*	*	*	*	*	*	*	*	*
8A\	.	.	16dd\LL	.	16ff#\LL	.	.	.	.	.	.	.	.	.	4r	4r
.	.	.	16dd\	.	16ee\	.	.	.	.	.	.	.	.	.	.	.
8A\J	.	.	16dd\	.	16ff#\	.	.	.	.	.	.	.	.	.	.	.
.	.	.	16dd\JJ	.	16gg\JJ	.	.	.	.	.	.	.	.	.	.	.
8A\L	.	.	16dd\LL	.	4ff#\	.	2A\	-rat	2A\	-rat	2f#\	-rat	2dd\	-rat	4a/	4a/
.	.	.	16dd\	.	.	.	.	.	.	.	.	.	.	.	.	.
8A\	.	.	16dd\	.	.	.	.	.	.	.	.	.	.	.	.	.
.	.	.	16dd\	.	.	.	.	.	.	.	.	.	.	.	.	.
!	!	!	!	!	!LO:LB:g=original	!	!	!	!	!	!	!	!	!	!	!
8A\	.	.	16dd\	.	8r	.	.	.	.	.	.	.	.	.	8a/L	8a/L
.	.	.	16dd\	.	.	.	.	.	.	.	.	.	.	.	.	.
8A\J	.	.	16dd\	.	8ff#\	.	.	.	.	.	.	.	.	.	8a/J	8a/J
.	.	.	16dd\JJ	.	.	.	.	.	.	.	.	.	.	.	.	.
=34	=34	=34	=34	=34	=34	=34	=34	=34	=34	=34	=34	=34	=34	=34	=34	=34
8A\L	#7r: 2:	.	16b\LL	.	4gg#X\	.	2A\	in	2A\	in	2g#X\	in	2b\	in	4a/	4a/
.	.	.	16b\	.	.	.	.	.	.	.	.	.	.	.	.	.
8A\	.	.	16b\	.	.	.	.	.	.	.	.	.	.	.	.	.
.	.	.	16b\	.	.	.	.	.	.	.	.	.	.	.	.	.
8A\	.	.	16b\	.	16gg#\LL	.	.	.	.	.	.	.	.	.	4r	4r
.	.	.	16b\	.	16aa\	.	.	.	.	.	.	.	.	.	.	.
8A\J	.	.	16b\	.	16gg#\	.	.	.	.	.	.	.	.	.	.	.
!	!	!	!	!	!LO:TX:a:t=30:color=gray	!	!	!	!	!	!	!	!	!	!	!
.	.	.	16b\JJ	.	16ff#\JJ	.	.	.	.	.	.	.	.	.	.	.
8A\L	.	.	16b\LL	.	8gg#\L	.	2A\	prin-	2A\	prin-	2g#\	prin-	2b\	prin-	4a/	4a/
.	.	.	16b\	.	.	.	.	.	.	.	.	.	.	.	.	.
8A\	.	.	16b\	.	8bb\	.	.	.	.	.	.	.	.	.	.	.
.	.	.	16b\	.	.	.	.	.	.	.	.	.	.	.	.	.
8A\	.	.	16b\	.	8ee\	.	.	.	.	.	.	.	.	.	4a/	4a/
.	.	.	16b\	.	.	.	.	.	.	.	.	.	.	.	.	.
8A\J	.	.	16b\	.	8gg#\J	.	.	.	.	.	.	.	.	.	.	.
.	.	.	16b\JJ	.	.	.	.	.	.	.	.	.	.	.	.	.
!	!	!	!	!	!	!	!	!	!	!	!	!	!LO:LB:g=original	!	!	!
=35	=35	=35	=35	=35	=35	=35	=35	=35	=35	=35	=35	=35	=35	=35	=35	=35
8A\L	5: 3:	.	16cc#\LL	.	4aa\	.	4.A\	-ci-	4.A\	-ci-	4a\	-ci-	4cc#\	-ci-	4a/	4a/
.	.	.	16cc#\	.	.	.	.	.	.	.	.	.	.	.	.	.
8A\	.	.	16cc#\	.	.	.	.	.	.	.	.	.	.	.	.	.
.	.	.	16cc#\	.	.	.	.	.	.	.	.	.	.	.	.	.
8A\	.	.	16cc#\	.	16aa\LL	.	.	.	.	.	4a\	-pi-	4cc#\	-pi-	4a/	4a/
.	.	.	16cc#\	.	16gg\	.	.	.	.	.	.	.	.	.	.	.
8A\J	.	.	16cc#\	.	16aa\	.	8A\	-pi-	8A\	-pi-	.	.	.	.	.	.
.	.	.	16cc#\JJ	.	16bb\JJ	.	.	.	.	.	.	.	.	.	.	.
8A\L	.	.	16cc#\LL	.	4aa\	.	4A\	-o	4A\	-o	4a\	-o	4cc#\	-o	4a/	4a/
.	.	.	16cc#\	.	.	.	.	.	.	.	.	.	.	.	.	.
8A\	.	.	16cc#\	.	.	.	.	.	.	.	.	.	.	.	.	.
.	.	.	16cc#\JJ	.	.	.	.	.	.	.	.	.	.	.	.	.
8A\	.	.	16e/LL	.	8r	.	4G\	(et)	4e\	(et)	4a\	(et)	4cc#\	(et)	8a/L	8a/L
.	.	.	16e/	.	.	.	.	.	.	.	.	.	.	.	.	.
8A\J	.	.	16e/	.	8cc#\	.	.	.	.	.	.	.	.	.	8a/J	8a/J
.	.	.	16e/JJ	.	.	.	.	.	.	.	.	.	.	.	.	.
*Xtremolo	*	*	*	*	*	*	*	*	*	*	*	*	*	*	*	*
!LO:LB:g=original	!	!	!	!	!	!	!LO:LB:g=original	!	!	!	!LO:LB:g=original	!	!	!	!	!
=36	=36	=36	=36	=36	=36	=36	=36	=36	=36	=36	=36	=36	=36	=36	=36	=36
8G\L	6: 5:	.	16e/LL	.	4.dd\	.	2G\	nunc	2e\	nunc	2b\	nunc	2dd\	nunc	2ee\	1ee
.	.	.	16e/	.	.	.	.	.	.	.	.	.	.	.	.	.
8E\	.	.	16e/	.	.	.	.	.	.	.	.	.	.	.	.	.
.	.	.	16e/JJ	.	.	.	.	.	.	.	.	.	.	.	.	.
8F#\	.	.	16e/LL	.	.	.	.	.	.	.	.	.	.	.	.	.
.	.	.	16e/	.	.	.	.	.	.	.	.	.	.	.	.	.
8G\J	.	.	16e/	.	16ee\LL	.	.	.	.	.	.	.	.	.	.	.
.	.	.	16e/JJ	.	16dd\JJ	.	.	.	.	.	.	.	.	.	.	.
8A\L	.	.	16e/LL	.	8cc#\L	.	2A\	(et)	2d\	(et)	2a\	(et)	2cc#\	(et)	2a/	.
.	.	.	16e/	.	.	.	.	.	.	.	.	.	.	.	.	.
8c#\	.	.	16e/	.	8a\	.	.	.	.	.	.	.	.	.	.	.
.	.	.	16e/	.	.	.	.	.	.	.	.	.	.	.	.	.
8B\	.	.	16e/	.	8b\	.	.	.	.	.	.	.	.	.	.	.
.	.	.	16e/	.	.	.	.	.	.	.	.	.	.	.	.	.
8A\J	.	.	16e/	.	8cc#\J	.	.	.	.	.	.	.	.	.	.	.
.	.	.	16e/JJ	.	.	.	.	.	.	.	.	.	.	.	.	.
!	!	!	!	!	!LO:LB:g=original	!	!	!	!	!	!	!	!	!	!	!
=37	=37	=37	=37	=37	=37	=37	=37	=37	=37	=37	=37	=37	=37	=37	=37	=37
8G#X\L	6: 5:	.	16e/LL	.	4.dd\	.	2G#X\	ſem-	2e\	ſem-	2b\	ſem-	2dd\	ſem-	2ee\	1ee
.	.	.	16e/	.	.	.	.	.	.	.	.	.	.	.	.	.
8E\	.	.	16e/	.	.	.	.	.	.	.	.	.	.	.	.	.
.	.	.	16e/	.	.	.	.	.	.	.	.	.	.	.	.	.
8F#\	.	.	16e/	.	.	.	.	.	.	.	.	.	.	.	.	.
.	.	.	16e/	.	.	.	.	.	.	.	.	.	.	.	.	.
8G#\J	.	.	16e/	.	16ee\LL	.	.	.	.	.	.	.	.	.	.	.
.	.	.	16e/JJ	.	16dd\JJ	.	.	.	.	.	.	.	.	.	.	.
8A\L	.	.	16e/LL	.	8cc#\L	.	4A\	-per	4e\	-per	4a\	-per	4cc#\	-per	2a/	.
.	.	.	16e/	.	.	.	.	.	.	.	.	.	.	.	.	.
8c#\	.	.	16e/	.	8a\	.	.	.	.	.	.	.	.	.	.	.
.	.	.	16e/	.	.	.	.	.	.	.	.	.	.	.	.	.
!	!	!	!	!	!	!	!	!	!LO:LB:g=original	!	!	!	!	!	!	!
8B\	.	.	16e/	.	8b\	.	4A\	(et)	4e\	(et)	4a\	(et)	4cc#\	(et)	.	.
.	.	.	16e/	.	.	.	.	.	.	.	.	.	.	.	.	.
8A\J	.	.	16e/	.	8cc#\J	.	.	.	.	.	.	.	.	.	.	.
.	.	.	16e/JJ	.	.	.	.	.	.	.	.	.	.	.	.	.
=38	=38	=38	=38	=38	=38	=38	=38	=38	=38	=38	=38	=38	=38	=38	=38	=38
8G#X\L	6: 5:	.	16e/LL	.	4.dd\	.	4G#X\	in	4e\	in	4b\	in	4dd\	in	2ee\	2ee\
.	.	.	16e/	.	.	.	.	.	.	.	.	.	.	.	.	.
8E\	.	.	16e/	.	.	.	.	.	.	.	.	.	.	.	.	.
.	.	.	16e/	.	.	.	.	.	.	.	.	.	.	.	.	.
8F#\	.	.	16e/	.	.	.	4G#\	ſae-	4e\	ſae-	4b\	ſae-	4dd\	ſae-	.	.
.	.	.	16e/	.	.	.	.	.	.	.	.	.	.	.	.	.
8G#\J	.	.	16e/	.	16ee\LL	.	.	.	.	.	.	.	.	.	.	.
.	.	.	16e/JJ	.	16dd\JJ	.	.	.	.	.	.	.	.	.	.	.
4A\	.	.	16e/LL	.	8cc#\L	.	4G#\	-cu-	4e\	-cu-	4a\	-cu-	4cc#\	-cu-	4a/	4ee\
.	.	.	16e/	.	.	.	.	.	.	.	.	.	.	.	.	.
.	.	.	16e/	.	8ee\	.	.	.	.	.	.	.	.	.	.	.
.	.	.	16e/JJ	.	.	.	.	.	.	.	.	.	.	.	.	.
*	*	*	*Xtremolo	*	*	*	*	*	*	*	*	*	*	*	*	*
!	!	!	!LO:LB:g=original	!	!	!	!	!	!	!	!	!	!	!	!	!
4D\	6 x	.	16b\LL	.	8ff#\	.	4d\	-la	4f#\	-la	4b\	-la	4dd\	-la	4dd\	4ff#\
.	.	.	16b\	.	.	.	.	.	.	.	.	.	.	.	.	.
.	.	.	16b\	.	8dd\J	.	.	.	.	.	.	.	.	.	.	.
.	.	.	16b\JJ	.	.	.	.	.	.	.	.	.	.	.	.	.
!	!	!	!	!	!	!	!	!	!	!	!	!	!LO:LB:g=original	!	!	!
=39	=39	=39	=39	=39	=39	=39	=39	=39	=39	=39	=39	=39	=39	=39	=39	=39
4C#\	6 x	.	8cc#\L	.	8ee\L	.	4c#\	ſae-	4e\	ſae-	4cc#\	ſae-	4ee\	ſae-	4a/	4ee\
.	.	.	8a\	.	8cc#\	.	.	.	.	.	.	.	.	.	.	.
4D\	6 x	.	8b\	.	8dd\	.	4d\	-cu-	4f#\	-cu-	4b\	-cu-	4dd\	-cu-	4dd\	4ff#\
.	.	.	8dd\J	.	8b\J	.	.	.	.	.	.	.	.	.	.	.
4E\	4 x	.	8a/L	.	8cc#\L	.	4e\	-lo-	2e\	-lo-	4a\	-lo-	4cc#\	-lo-	4ee\	4dd\
.	.	.	8cc#/	.	8aa\	.	.	.	.	.	.	.	.	.	.	.
4EE/	# x	.	8g#X/	.	8b\	.	4E\	.	.	.	4g#X\	.	4b\	.	4ee\	4ee\
.	.	.	8b/J	.	8gg#X\J	.	.	.	.	.	.	.	.	.	.	.
!	!	!	!	!	!	!	!LO:LB:g=original	!	!	!	!	!	!	!	!	!LO:LB:g=original
=40	=40	=40	=40	=40	=40	=40	=40	=40	=40	=40	=40	=40	=40	=40	=40	=40
4AA/	.	.	4cc#\	.	4aa\	.	4A\	-rum	4e\	-rum	4a\	-rum	4cc#\	-rum	4a/	4ee\
4r	.	.	16a/LL	.	16aa\LL	.	4r	.	4r	.	4r	.	4r	.	4r	4r
.	.	.	16g/	.	16gg\	.	.	.	.	.	.	.	.	.	.	.
.	.	.	16a/	.	16aa\	.	.	.	.	.	.	.	.	.	.	.
.	.	.	16b/JJ	.	16bb\JJ	.	.	.	.	.	.	.	.	.	.	.
!	!	!	!	!	!	!	!	!	!	!	!	!	!LO:TX:b:i:t=Verte	!	!	!
2r	.	.	8a/L	.	8aa\L	.	2r	.	2r	.	2r	.	2r	.	2r	2r
.	.	.	8gn/	.	8ggn\	.	.	.	.	.	.	.	.	.	.	.
.	.	.	8f#/	.	8ff#\	.	.	.	.	.	.	.	.	.	.	.
.	.	.	8e/J	.	8ee\J	.	.	.	.	.	.	.	.	.	.	.
!LO:LB:g=original	!	!	!	!	!LO:LB:g=original	!	!	!	!	!	!LO:LB:g=original	!	!LO:PB:g=original	!	!LO:LB:g=original	!
=41	=41	=41	=41	=41	=41	=41	=41	=41	=41	=41	=41	=41	=41	=41	=41	=41
!	!	!LO:DY:a:rj:t=p&colon;	!	!	!	!	!	!	!	!	!	!	!	!	!LO:TX:a:t=4.	!
4r	.	p	4d#X/	.	4dd#X\	.	4r	.	4r	.	4r	.	4r	.	00r	00r
.	.	.	8qe/	.	8qee/	.	.	.	.	.	.	.	.	.	.	.
4A\	#4r 2	.	8d#/L	.	8dd#\L	.	4A\	a-	4B\	a-	4f#\	a-	4dd#X\	a-	.	.
.	.	.	16c#/L	.	16cc#\L	.	.	.	.	.	.	.	.	.	.	.
.	.	.	16d#/JJ	.	16dd#\JJ	.	.	.	.	.	.	.	.	.	.	.
4Gn\	6 x	.	8e/L	.	8ee\L	.	4G\	.	2B\	.	4gn\	.	4ee\	.	.	.
.	.	.	8B/	.	8b\	.	.	.	.	.	.	.	.	.	.	.
4D#X\	6 5	.	8f#/	.	8ff#\	.	4D#X\	.	.	.	4a\	.	4ff#\	.	.	.
.	.	.	8B/J	.	8b\J	.	.	.	.	.	.	.	.	.	.	.
!	!	!	!LO:LB:g=original	!	!	!	!	!	!	!	!	!	!	!	!	!
=42	=42	=42	=42	=42	=42	=42	=42	=42	=42	=42	=42	=42	=42	=42	=42-	=42-
4E\	.	.	8g/L	.	8gg\L	.	4E\	.	1B	.	4g\	.	4ee\	.	.	.
.	.	.	8B/J	.	8b\J	.	.	.	.	.	.	.	.	.	.	.
4A\	#4r 2	.	8d#X/L	.	8dd#X\L	.	4A\	.	.	.	4f#\	.	4dd#X\	.	.	.
.	.	.	16c#/L	.	16cc#\L	.	.	.	.	.	.	.	.	.	.	.
.	.	.	16d#/JJ	.	16dd#\JJ	.	.	.	.	.	.	.	.	.	.	.
4G\	6 x	.	8e/L	.	8ee\L	.	4G\	.	.	.	4g\	.	4ee\	.	.	.
.	.	.	8B/	.	8b\	.	.	.	.	.	.	.	.	.	.	.
4D#X\	6 5	.	8f#/	.	8ff#\	.	4D#X\	.	.	.	4a\	.	4ff#\	.	.	.
.	.	.	8B/J	.	8b\J	.	.	.	.	.	.	.	.	.	.	.
!	!	!	!	!	!	!	!	!	!LO:LB:g=original	!	!	!	!	!	!	!
=43	=43	=43	=43	=43	=43	=43	=43	=43	=43	=43	=43	=43	=43	=43	=43-	=43-
4E\	.	.	4g/	.	8gg\L	.	4E\	.	4B\	.	4b\	.	4ggn\	.	.	.
.	.	.	.	.	8ee\	.	.	.	.	.	.	.	.	.	.	.
4A\	6 x	.	8cc#/L	.	8aa\	.	4A\	.	4c#\	.	4a\	.	4ff#\	.	.	.
.	.	.	8a/J	.	8ff#\J	.	.	.	.	.	.	.	.	.	.	.
4B\	4 x	.	8a/L	.	8ff#\L	.	4B\	.	2B\	.	4g\	.	4ee\	.	.	.
.	.	.	8g/	.	8ee\	.	.	.	.	.	.	.	.	.	.	.
!	!	!	!	!	!	!	!	!	!	!	!LO:SIC:v:s:t=4g\	!	!	!	!	!
4BB/	# x	.	8g/	.	8ee\	.	4BB/	.	.	.	4f#\	.	4dd#X\	.	.	.
.	.	.	8f#/J	.	8dd#X\J	.	.	.	.	.	.	.	.	.	.	.
=44	=44	=44	=44	=44	=44	=44	=44	=44	=44	=44	=44	=44	=44	=44	=44-	=44-
4E\	.	.	4g/	.	4ee\	.	4E\	-men	4B\	-men	4g\	-men	4ee\	-men	.	.
4r	.	.	16g/LL	.	16gg\LL	.	4r	.	4r	.	4r	.	4r	.	.	.
.	.	.	16f#/	.	16ff#\	.	.	.	.	.	.	.	.	.	.	.
.	.	.	16g/	.	16gg\	.	.	.	.	.	.	.	.	.	.	.
.	.	.	16a/JJ	.	16aa\JJ	.	.	.	.	.	.	.	.	.	.	.
!	!	!	!	!	!LO:LB:g=original	!	!	!	!	!	!	!	!	!	!	!
!	!	!	!	!	!	!	!	!	!	!	!LO:TX:b:i:t=Verte	!	!	!	!	!
2r	.	.	8g/L	.	8gg\L	.	2r	.	2r	.	2r	.	2r	.	.	.
.	.	.	8f#/	.	8ff#\	.	.	.	.	.	.	.	.	.	.	.
.	.	.	8e/	.	8ee\	.	.	.	.	.	.	.	.	.	.	.
.	.	.	8dn/J	.	8ddn\J	.	.	.	.	.	.	.	.	.	.	.
!	!	!	!	!	!	!	!LO:LB:g=original	!	!	!	!LO:PB:g=original	!	!	!	!	!
=45	=45	=45	=45	=45	=45	=45	=45	=45	=45	=45	=45	=45	=45	=45	=45	=45
4r	.	.	4c#/	.	4cc#\	.	4r	.	4r	.	4r	.	4r	.	4r	4r
.	.	.	.	.	8qdd/	.	.	.	.	.	.	.	.	.	.	.
4G\	4 2	.	8c#/L	.	8cc#\L	.	4G\	a-	4A\	a-	4e\	a-	4cc#\	a-	4a/	4ee\
.	.	.	16B/L	.	16b\L	.	.	.	.	.	.	.	.	.	.	.
.	.	.	16c#/JJ	.	16cc#\JJ	.	.	.	.	.	.	.	.	.	.	.
4F#\	6 x	.	8d/L	.	8dd\L	.	4F#\	.	2A\	.	4f#\	.	4ddn\	.	4dd\	4ff#\
.	.	.	8A/J	.	8a\	.	.	.	.	.	.	.	.	.	.	.
!	!	!	!LO:LB:g=original	!	!	!	!	!	!	!	!	!	!	!	!	!
4C#\	6 5	.	8e/L	.	8ee\	.	4C#/	.	.	.	4g\	.	4ee\	.	4ee\	4gg\
.	.	.	8A/J	.	8a\J	.	.	.	.	.	.	.	.	.	.	.
!	!	!	!	!	!	!	!	!	!	!	!	!	!LO:LB:g=original	!	!	!
=46	=46	=46	=46	=46	=46	=46	=46	=46	=46	=46	=46	=46	=46	=46	=46	=46
!	!	!	!	!	!	!	!LO:TX:t=P:problem:przepełniony takt	!	!	!	!	!	!	!	!	!
4Dn\	.	.	8f#/L	.	8ff#\L	.	4r	.	1A	.	4f#\	.	4dd\	.	4dd\	4ff#\
.	.	.	8A/J	.	8a\J	.	.	.	.	.	.	.	.	.	.	.
.	.	.	.	.	8qdd/	.	.	.	.	.	.	.	.	.	.	.
!	!	!	!	!	!	!	!LO:N:vis=4	!	!	!	!	!	!	!	!	!
4G\	4 2	.	8c#/L	.	8cc#\L	.	8D\	.	.	.	4e\	.	4cc#\	.	4a/	4ee\
!	!	!	!	!	!	!	!LO:N:vis=4	!	!	!	!	!	!	!	!	!
.	.	.	16B/L	.	16b\L	.	8G\	.	.	.	.	.	.	.	.	.
.	.	.	16c#/JJ	.	16cc#\JJ	.	.	.	.	.	.	.	.	.	.	.
4F#\	6 x	.	8d/L	.	8dd\L	.	4F#\	.	.	.	4f#\	.	4dd\	.	4dd\	4ff#\
!	!	!	!	!	!LO:TX:b:i:t=Verte	!	!	!	!	!	!	!	!	!	!	!
.	.	.	8A/	.	8a\	.	.	.	.	.	.	.	.	.	.	.
4C#\	6 5	.	8e/	.	8ee\	.	4C#\	.	.	.	4g\	.	4ee\	.	4ee\	4gg\
.	.	.	8A/J	.	8a\J	.	.	.	.	.	.	.	.	.	.	.
!LO:LB:g=original	!	!	!	!	!LO:PB:g=original	!	!	!	!	!	!	!	!	!	!	!
=47	=47	=47	=47	=47	=47	=47	=47	=47	=47	=47	=47	=47	=47	=47	=47	=47
4D\	.	.	4f#/	.	8ff#\L	.	4D\	.	4A\	.	4a\	.	4ff#\	.	4ff#\	4aa\
.	.	.	.	.	8dd\	.	.	.	.	.	.	.	.	.	.	.
4G\	6 x	.	8b/L	.	8gg\	.	4G\	.	4B\	.	4g\	.	4ee\	.	4ee\	4gg\
.	.	.	8g/J	.	8ee\J	.	.	.	.	.	.	.	.	.	.	.
!	!	!	!LO:SIC:v:s:t=8f#/	!	!	!	!	!	!	!	!	!	!	!	!	!
4A\	4 x	.	8g/L	.	8ee\L	.	4A\	.	2A\	.	4f#\	.	4dd\	.	4dd\	4ff#\
.	.	.	8f#/	.	8dd\	.	.	.	.	.	.	.	.	.	.	.
!	!	!	!	!	!LO:SIC:v:s:t=8cc#\	!	!	!	!	!	!	!	!	!	!	!
4AA/	x 3	.	8f#/	.	8dd\	.	4AA/	.	.	.	4e\	.	4cc#\	.	4a/	4ee\
.	.	.	8e/J	.	8cc#\J	.	.	.	.	.	.	.	.	.	.	.
=48	=48	=48	=48	=48	=48	=48	=48	=48	=48	=48	=48	=48	=48	=48	=48	=48
4D\	.	.	8f#/L	.	8dd\L	.	4D\	-men	4A\	-men	4f#\	-men	4dd\	-men	4f#/	4dd\
.	.	.	16e/L	.	16ee\L	.	.	.	.	.	.	.	.	.	.	.
.	.	.	16d/JJ	.	16ff#\JJ	.	.	.	.	.	.	.	.	.	.	.
4r	.	.	8c#/L	.	8gg\L	.	4r	.	4r	.	4r	.	4r	.	4r	4r
.	.	.	8d/J	.	8ff#\J	.	.	.	.	.	.	.	.	.	.	.
4r	.	.	4A/	.	8ee\L	.	4r	.	4r	.	4r	.	4r	.	2r	2r
.	.	.	.	.	8a\J	.	.	.	.	.	.	.	.	.	.	.
4C#/	6 x	.	4a/	.	[<4aa\	.	4c#\	a-	4e\	a-	4a\	a-	[<4aa\	a-	.	.
!	!	!	!	!	!	!	!	!	!LO:LB:g=original	!	!	!	!	!	!	!
=49	=49	=49	=49	=49	=49	=49	=49	=49	=49	=49	=49	=49	=49	=49	=49	=49
!	!	!	!	!	!	!	!	!	!	!	!	!	!	!	!LO:TX:a:t=4	!
4D\	6 5	.	2b/	.	4aa\]	.	4d\	.	4f#\	.	2b\	.	4aa\]	.	00r	00r
*	*	*	*	*	*2\right	*	*	*	*	*	*	*	*	*	*	*
4E\	.	.	.	.	2gg\	.	4e\	.	2e\	.	.	.	2gg\	.	.	.
4C#/	6 5	.	2a/	.	.	.	4c#\	.	.	.	2a\	.	.	.	.	.
4D/	.	.	.	.	[<4ff#\	.	4d\	.	4d\	.	.	.	[<4ff#\	.	.	.
!	!	!	!	!	!	!	!LO:LB:g=original	!	!	!	!LO:LB:g=original	!	!	!	!	!
=50	=50	=50	=50	=50	=50	=50	=50	=50	=50	=50	=50	=50	=50	=50	=50-	=50-
4BB/	6 5	.	2g/	.	4ff#\]	.	4B\	.	4d\	.	2g\	.	4ff#\]	.	.	.
4C#/	.	.	.	.	2ee\	.	4c#\	.	2c#\	.	.	.	2ee\	.	.	.
4AA/	6 5	.	2f#/	.	.	.	4A\	.	.	.	2f#\	.	.	.	.	.
4BB/	.	.	.	.	[<4dd\	.	4B\	.	4B\	.	.	.	[<4dd\	.	.	.
!	!	!	!LO:LB:g=original	!	!	!	!	!	!	!	!	!	!	!	!	!
=51	=51	=51	=51	=51	=51	=51	=51	=51	=51	=51	=51	=51	=51	=51	=51-	=51-
4GG/	6 5	.	2e/	.	8dd\L]	.	4G\	.	4B\	.	2e\	.	4dd\]	.	.	.
.	.	.	.	.	16cc#\L	.	.	.	.	.	.	.	.	.	.	.
.	.	.	.	.	16dd\JJ	.	.	.	.	.	.	.	.	.	.	.
!	!	!	!	!	!LO:LB:g=original	!	!	!	!	!	!	!	!	!	!	!
4AA/	.	.	.	.	8ee\L	.	4A\	.	4A\	.	.	.	4cc#\	.	.	.
.	.	.	.	.	8cc#\J	.	.	.	.	.	.	.	.	.	.	.
!	!	!	!	!	!	!	!	!	!	!	!	!	!LO:LB:g=original	!	!	!
4BB/	.	.	4f#/	.	8dd\L	.	4B\	.	2B\	.	4f#\	.	4dd\	.	.	.
.	.	.	.	.	8ff#\	.	.	.	.	.	.	.	.	.	.	.
!	!	!	!LO:SIC:v:s:t=8g#/L	!	!	!	!	!	!	!	!LO:SIC:v:s:t=8g#\L	!	!	!	!	!
4GG#X/	6 5	.	8g/L	.	8ee\	.	4G#X\	.	.	.	8g\L	.	8ee\L	.	.	.
.	.	.	8f#/J	.	8dd\J	.	.	.	.	.	8f#\J	.	8dd\J	.	.	.
=52	=52	=52	=52	=52	=52	=52	=52	=52	=52	=52	=52	=52	=52	=52	=52-	=52-
4AA/	.	.	8e/L	.	8cc#/L	.	4A\	-men	4A\	-men	4e\	-men	4cc#\	-men	.	.
.	.	.	16c#/L	.	16a/L	.	.	.	.	.	.	.	.	.	.	.
.	.	.	16B/JJ	.	16g#X/JJ	.	.	.	.	.	.	.	.	.	.	.
4r	.	.	8c#/L	.	8a/L	.	4r	.	4r	.	4r	.	4r	.	.	.
.	.	.	8d/J	.	8b/J	.	.	.	.	.	.	.	.	.	.	.
2r	.	.	8e/L	.	8cc#\L	.	2r	.	2r	.	2r	.	2r	.	.	.
.	.	.	8f#/	.	8dd\	.	.	.	.	.	.	.	.	.	.	.
.	.	.	8e/	.	8cc#\	.	.	.	.	.	.	.	.	.	.	.
.	.	.	8d/J	.	8b\J	.	.	.	.	.	.	.	.	.	.	.
!LO:LB:g=original	!	!	!	!	!	!	!	!	!	!	!	!	!	!	!	!
=53	=53	=53	=53	=53	=53	=53	=53	=53	=53	=53	=53	=53	=53	=53	=53	=53
!	!	!LO:DY:a:rj:t=p&colon;	!	!	!	!	!	!	!	!	!	!	!	!	!	!
4AA/	.	p	8c#/L	.	8a\L	.	0r	.	0r	.	0r	.	0r	.	4a/	4ee\
.	.	.	16a/L	.	16cc#\L	.	.	.	.	.	.	.	.	.	.	.
.	.	.	16g#X/JJ	.	16b\JJ	.	.	.	.	.	.	.	.	.	.	.
4r	.	.	8a/L	.	8cc#\L	.	.	.	.	.	.	.	.	.	4r	4r
.	.	.	8b/J	.	8dd\J	.	.	.	.	.	.	.	.	.	.	.
2r	.	.	8cc#\L	.	8ee\L	.	.	.	.	.	.	.	.	.	2r	2r
.	.	.	8dd\	.	8ff#\	.	.	.	.	.	.	.	.	.	.	.
.	.	.	8cc#\	.	8ee\	.	.	.	.	.	.	.	.	.	.	.
.	.	.	8b\J	.	8dd\J	.	.	.	.	.	.	.	.	.	.	.
=54	=54	=54	=54	=54	=54	=54	=54-	=54	=54-	=54	=54-	=54	=54-	=54	=54	=54
4r	.	.	8a/	.	8cc#\	.	.	.	.	.	.	.	.	.	4r	4r
.	.	.	4ee\	.	4gg\	.	.	.	.	.	.	.	.	.	.	.
4AA/	7: 5:	.	.	.	.	.	.	.	.	.	.	.	.	.	4a/	4ee\
!	!	!	!	!	!LO:TX:a:t=50:color=gray	!	!	!	!	!	!	!	!	!	!	!
.	.	.	4ee\	.	4gg\	.	.	.	.	.	.	.	.	.	.	.
4AA/	.	.	.	.	.	.	.	.	.	.	.	.	.	.	4a/	4ee\
.	.	.	4ee\	.	4gg\	.	.	.	.	.	.	.	.	.	.	.
4AA/	.	.	.	.	.	.	.	.	.	.	.	.	.	.	4a/	4ee\
.	.	.	8ee\	.	8gg\	.	.	.	.	.	.	.	.	.	.	.
!	!	!	!	!	!LO:LB:g=original	!	!	!	!	!	!	!	!	!	!	!LO:LB:g=original
=55	=55	=55	=55	=55	=55	=55	=55	=55	=55	=55	=55	=55	=55	=55	=55	=55
!	!	!	!LO:TX:b:i:t=Verte	!	!	!	!	!	!	!	!	!	!	!	!	!
2AA/	.	.	2ee\	.	2gg\	.	1r;>	.	1r;>	.	1r;>	.	1r;>	.	2a/	2ee\
2r;>	.	.	2r;>	.	2r;>	.	.	.	.	.	.	.	.	.	2r;<	2r;>
!	!	!	!LO:PB:g=original	!	!	!	!	!	!	!	!	!	!	!	!	!
=56	=56	=56	=56	=56	=56	=56	=56	=56	=56	=56	=56	=56	=56	=56	=56	=56
!	!	!LO:DY:a:rj:t=p&colon;	!	!LO:DY:a:rj:t=p&colon;	!	!LO:DY:a:t=p&colon;	!	!	!	!	!LO:TX:a:i:t=Solo	!	!LO:TX:a:i:t=Solo	!	!LO:TX:a:t=8.	!
8D\L	.	p	4.f#/	p	4.a/	p	00r	.	00r	.	4.f#\	ſi-	4.a\	ſi-	00r	00r
8D\	.	.	.	.	.	.	.	.	.	.	.	.	.	.	.	.
8D\	.	.	.	.	.	.	.	.	.	.	.	.	.	.	.	.
8D\J	.	.	16d/LL	.	16f#/LL	.	.	.	.	.	16d\LL	-cut	16f#\LL	-cut	.	.
.	.	.	16e/JJ	.	16g/JJ	.	.	.	.	.	16e\JJ	.	16g\JJ	.	.	.
*tremolo	*	*	*	*	*	*	*	*	*	*	*	*	*	*	*	*
8D\L	.	.	4f#/	.	4a/	.	.	.	.	.	4f#\	e-	4a\	e-	.	.
8D\	.	.	.	.	.	.	.	.	.	.	.	.	.	.	.	.
8D\	.	.	4f#/	.	4a/	.	.	.	.	.	4f#\	-rat	4a\	-rat	.	.
8D\J	.	.	.	.	.	.	.	.	.	.	.	.	.	.	.	.
!	!	!	!	!	!	!	!	!	!	!	!LO:LB:g=original	!	!	!	!	!
=57	=57	=57	=57	=57	=57	=57	=57-	=57	=57-	=57	=57	=57	=57	=57	=57-	=57-
8D\L	.	.	4.f#/	.	4.a/	.	.	.	.	.	4.f#\	in	4.a\	in	.	.
8D\	.	.	.	.	.	.	.	.	.	.	.	.	.	.	.	.
8D\	.	.	.	.	.	.	.	.	.	.	.	.	.	.	.	.
8D\J	.	.	16d/LL	.	16f#/LL	.	.	.	.	.	16d\LL	prin-	16f#\LL	prin-	.	.
.	.	.	16e/JJ	.	16g/JJ	.	.	.	.	.	16e\JJ	.	16g\JJ	.	.	.
8D\L	.	.	4f#/	.	4a/	.	.	.	.	.	4f#\	-ci-	4a\	-ci-	.	.
8D\	.	.	.	.	.	.	.	.	.	.	.	.	.	.	.	.
8D\	.	.	4f#/	.	4a/	.	.	.	.	.	4f#\	-pi-	4a\	-pi-	.	.
8D\J	.	.	.	.	.	.	.	.	.	.	.	.	.	.	.	.
=58	=58	=58	=58	=58	=58	=58	=58-	=58	=58-	=58	=58	=58	=58	=58	=58-	=58-
8D\L	6: 4:	.	4.g/	.	4.b\	.	.	.	.	.	4.g\	-o	4.b\	-o	.	.
8D\	.	.	.	.	.	.	.	.	.	.	.	.	.	.	.	.
8D\	.	.	.	.	.	.	.	.	.	.	.	.	.	.	.	.
8D\J	.	.	8f#/	.	8a\	.	.	.	.	.	8f#\	(et)	8a\	(et)	.	.
!	!	!	!	!	!	!	!	!	!	!	!	!	!LO:LB:g=original	!	!	!
8D\L	.	.	8g/L	.	8b\L	.	.	.	.	.	8g\L	nunc	8b\L	nunc	.	.
8D\	.	.	8a/	.	8cc#\	.	.	.	.	.	8a\J	.	8cc#\J	.	.	.
8D\	.	.	8b/	.	8dd\	.	.	.	.	.	8b\L	(et)	8dd\L	(et)	.	.
8D\J	.	.	8g/J	.	8b\J	.	.	.	.	.	8g\J	.	8b\J	.	.	.
=59	=59	=59	=59	=59	=59	=59	=59-	=59	=59-	=59	=59	=59	=59	=59	=59-	=59-
8D\L	.	.	4.g/	.	4.b\	.	.	.	.	.	2g\	ſem-	2b\	ſem-	.	.
8D\	.	.	.	.	.	.	.	.	.	.	.	.	.	.	.	.
8D\	.	.	.	.	.	.	.	.	.	.	.	.	.	.	.	.
8D\J	.	.	16f#/LL	.	16a\LL	.	.	.	.	.	.	.	.	.	.	.
.	.	.	16g/JJ	.	16b\JJ	.	.	.	.	.	.	.	.	.	.	.
8D\L	5 3	.	4f#/	.	4a/	.	.	.	.	.	4f#\	-per	4a\	-per	.	.
8D\	.	.	.	.	.	.	.	.	.	.	.	.	.	.	.	.
8D\	.	.	4d/	.	4f#/	.	.	.	.	.	4d\	(et)	4f#/	(et)	.	.
8D\J	.	.	.	.	.	.	.	.	.	.	.	.	.	.	.	.
*Xtremolo	*	*	*	*	*	*	*	*	*	*	*	*	*	*	*	*
!LO:LB:g=original	!	!	!	!	!LO:LB:g=original	!	!	!	!	!	!LO:LB:g=original	!	!	!	!	!
=60	=60	=60	=60	=60	=60	=60	=60-	=60	=60-	=60	=60	=60	=60	=60	=60-	=60-
8C#/L	.	.	4.c#/	.	4.e/	.	00r	.	00r	.	(>4.c#\	nunc	(<4.e/	nunc	00r	00r
8C#/	.	.	.	.	.	.	.	.	.	.	.	.	.	.	.	.
8C#/	.	.	.	.	.	.	.	.	.	.	.	.	.	.	.	.
8C#/J	.	.	16B/LL	.	16d/LL	.	.	.	.	.	16B\LL	.	16d/LL	.	.	.
.	.	.	16c#/JJ	.	16e/JJ	.	.	.	.	.	16c#\JJ)	.	16e/JJ)	.	.	.
!	!	!	!LO:LB:g=original	!	!	!	!	!	!	!	!	!	!	!	!	!
*tremolo	*	*	*	*	*	*	*	*	*	*	*	*	*	*	*	*
8D\L	.	.	8d/L	.	8f#/L	.	.	.	.	.	8d\L	.	8f#/L	.	.	.
8D\	.	.	8e/	.	8g/	.	.	.	.	.	8e\J	.	8g/J	.	.	.
8D\	.	.	8f#/	.	8a/	.	.	.	.	.	8f#\L	(et)	8a/L	(et)	.	.
8D\J	.	.	8d/J	.	8f#/J	.	.	.	.	.	8d\J	.	8f#/J	.	.	.
!	!	!	!	!	!	!	!	!	!	!	!LO:LB:g=original	!	!	!	!	!
=61	=61	=61	=61	=61	=61	=61	=61-	=61	=61-	=61	=61	=61	=61	=61	=61-	=61-
8AA/L	.	.	4.c#/	.	4.e/	.	.	.	.	.	(>4.c#\	ſem-	4.e/	ſem-	.	.
8AA/	.	.	.	.	.	.	.	.	.	.	.	.	.	.	.	.
8AA/	.	.	.	.	.	.	.	.	.	.	.	.	.	.	.	.
8AA/J	.	.	16B/LL	.	16d/LL	.	.	.	.	.	16B\LL	-per	(<16d/LL	-per	.	.
.	.	.	16c#/JJ	.	16e/JJ	.	.	.	.	.	16c#\JJ)	.	16e/JJ)	.	.	.
8D\L	.	.	4d/	.	4f#/	.	.	.	.	.	4d\	.	4f#/	.	.	.
8D\	.	.	.	.	.	.	.	.	.	.	.	.	.	.	.	.
8D\	.	.	4f#/	.	4a/	.	.	.	.	.	4f#\	(et)	4a\	(et)	.	.
8D\J	.	.	.	.	.	.	.	.	.	.	.	.	.	.	.	.
=62	=62	=62	=62	=62	=62	=62	=62-	=62	=62-	=62	=62	=62	=62	=62	=62-	=62-
8D\L	.	.	4.f#/	.	4.a/	.	.	.	.	.	(>2f#\	nunc	2a\	nunc	.	.
8D\	.	.	.	.	.	.	.	.	.	.	.	.	.	.	.	.
8D\	.	.	.	.	.	.	.	.	.	.	.	.	.	.	.	.
8D\J	.	.	16d/LL	.	16g/LL	.	.	.	.	.	.	.	.	.	.	.
.	.	.	16e/JJ	.	16a/JJ	.	.	.	.	.	.	.	.	.	.	.
!	!	!	!	!	!	!	!	!	!	!	!	!	!LO:LB:g=original	!	!	!
8D\L	.	.	8g/L	.	8b/L	.	.	.	.	.	8g\L)	.	8b\L	.	.	.
8D\	.	.	8f#/	.	8a/	.	.	.	.	.	8f#\J	.	8a\J	.	.	.
8D\	.	.	8e/	.	8g/	.	.	.	.	.	8e\L	(et)	8g/L	(et)	.	.
8D\J	.	.	8d/J	.	8f#/J	.	.	.	.	.	8d\J	.	8f#/J	.	.	.
=63	=63	=63	=63	=63	=63	=63	=63-	=63	=63-	=63	=63	=63	=63	=63	=63-	=63-
!	!	!	!	!	!	!	!LO:TX:b:i:t=Verte	!	!	!	!	!	!	!	!	!
8A\L	4 x	.	2d/	.	2f#/	.	.	.	.	.	2d\	ſem-	2f#/	ſem-	.	.
8A\	.	.	.	.	.	.	.	.	.	.	.	.	.	.	.	.
8A\	.	.	.	.	.	.	.	.	.	.	.	.	.	.	.	.
8A\J	.	.	.	.	.	.	.	.	.	.	.	.	.	.	.	.
*Xtremolo	*	*	*	*	*	*	*	*	*	*	*	*	*	*	*	*
8A\L	x 3:	.	4c#/	.	4e/	.	.	.	.	.	4c#\	-per	4e/	-per	.	.
8G\	.	.	.	.	.	.	.	.	.	.	.	.	.	.	.	.
8F#\	.	.	4r	.	4r	.	.	.	.	.	4r	.	4r	.	.	.
8E\J	.	.	.	.	.	.	.	.	.	.	.	.	.	.	.	.
!	!	!	!	!	!	!	!LO:PB:g=original	!	!LO:LB:g=original	!	!	!	!	!	!	!
=64	=64	=64	=64	=64	=64	=64	=64	=64	=64	=64	=64	=64	=64	=64	=64	=64
*	*	*	*^	*	*	*	*	*	*	*	*	*	*	*	*	*
*tremolo	*	*	*	*	*	*	*	*	*	*	*	*	*	*	*	*	*
!LO:TX:a:i:t=tutti:rj	!	!	!	!	!LO:DY:a:t=for&colon;:rj	!	!LO:DY:a:t=for&colon;	!	!	!	!	!	!	!	!	!	!
8D\L	.	.	16a/LL	16f#\LL	f	4d\ 4a\ 4ff#\	f	4D\	ſi-	4d\	ſi-	4a\	ſi-	4ff#\	ſi-	4f#/	4dd\
.	.	.	16a/	16f#\	.	.	.	.	.	.	.	.	.	.	.	.	.
8D\	.	.	16a/	16f#\	.	.	.	.	.	.	.	.	.	.	.	.	.
.	.	.	16a/JJ	16f#\JJ	.	.	.	.	.	.	.	.	.	.	.	.	.
*	*	*	*tremolo	*tremolo	*	*	*	*	*	*	*	*	*	*	*	*	*
8D\	.	.	16a/LL	16f#\LL	.	16ff#\LL	.	4D\	-cut	4d\	-cut	4a\	-cut	4ff#\	-cut	4r	4r
.	.	.	16a/	16f#\	.	16ee\	.	.	.	.	.	.	.	.	.	.	.
!	!	!	!	!	!	!LO:TX:a:t=60:color=gray	!	!	!	!	!	!	!	!	!	!	!
8D\J	.	.	16a/	16f#\	.	16ff#\	.	.	.	.	.	.	.	.	.	.	.
.	.	.	16a/JJ	16f#\JJ	.	16gg\JJ	.	.	.	.	.	.	.	.	.	.	.
*	*	*	*Xtremolo	*Xtremolo	*	*	*	*	*	*	*	*	*	*	*	*	*
!	!	!	!LO:LB:g=original	!LO:LB:g=original	!	!LO:LB:g=original	!	!	!	!	!	!	!	!	!	!	!
8D\L	.	.	16a/LL	16f#\LL	.	4a\ 4aa\	.	4D\	e-	4d\	e-	4a\	e-	4ff#\	e-	4f#/	4dd\
.	.	.	16a/	16f#\	.	.	.	.	.	.	.	.	.	.	.	.	.
8D\	.	.	16a/	16f#\	.	.	.	.	.	.	.	.	.	.	.	.	.
.	.	.	16a/JJ	16f#\JJ	.	.	.	.	.	.	.	.	.	.	.	.	.
*	*	*	*tremolo	*tremolo	*	*	*	*	*	*	*	*	*	*	*	*	*
8D\	.	.	16a/LL	16f#\LL	.	4a\ 4aa\	.	4D\	-rat	4d\	-rat	4a\	-rat	4ff#\	-rat	8f#/L	8dd\L
.	.	.	16a/	16f#\	.	.	.	.	.	.	.	.	.	.	.	.	.
8D\J	.	.	16a/	16f#\	.	.	.	.	.	.	.	.	.	.	.	8f#/J	8dd\J
.	.	.	16a/JJ	16f#\JJ	.	.	.	.	.	.	.	.	.	.	.	.	.
=65	=65	=65	=65	=65	=65	=65	=65	=65	=65	=65	=65	=65	=65	=65	=65	=65	=65
8D\L	.	.	16a/LL	16f#\LL	.	4a\ 4aa\	.	4D\	in	4d\	in	4a\	in	4ff#\	in	4f#/	4dd\
.	.	.	16a/	16f#\	.	.	.	.	.	.	.	.	.	.	.	.	.
8D\	.	.	16a/	16f#\	.	.	.	.	.	.	.	.	.	.	.	.	.
.	.	.	16a/	16f#\	.	.	.	.	.	.	.	.	.	.	.	.	.
8D\	.	.	16a/	16f#\	.	16ff#\LL	.	4D\	prin-	4d\	prin-	4a\	prin-	4ff#\	prin-	4r	4r
.	.	.	16a/	16f#\	.	16ee\	.	.	.	.	.	.	.	.	.	.	.
8D\J	.	.	16a/	16f#\	.	16ff#\	.	.	.	.	.	.	.	.	.	.	.
.	.	.	16a/JJ	16f#\JJ	.	16gg\JJ	.	.	.	.	.	.	.	.	.	.	.
!	!	!	!	!	!	!	!	!	!	!	!	!LO:LB:g=original	!	!	!	!	!
8D\L	.	.	16a/LL	16f#\LL	.	4a\ 4aa\	.	4D\	-ci-	4d\	-ci-	4a\	-ci-	4ff#\	-ci-	4f#/	4dd\
.	.	.	16a/	16f#\	.	.	.	.	.	.	.	.	.	.	.	.	.
8D\	.	.	16a/	16f#\	.	.	.	.	.	.	.	.	.	.	.	.	.
.	.	.	16a/	16f#\	.	.	.	.	.	.	.	.	.	.	.	.	.
!	!	!	!	!	!	!	!	!	!	!	!	!	!	!	!	!LO:LB:g=original	!
8D\	.	.	16a/	16f#\	.	4a\ 4aa\	.	4D\	-pi-	4d\	-pi-	4a\	-pi-	4ff#\	-pi-	8f#/L	8dd\L
.	.	.	16a/	16f#\	.	.	.	.	.	.	.	.	.	.	.	.	.
8D\J	.	.	16a/	16f#\	.	.	.	.	.	.	.	.	.	.	.	8f#/J	8dd\J
.	.	.	16a/JJ	16f#\JJ	.	.	.	.	.	.	.	.	.	.	.	.	.
!LO:PB:g=original	!	!	!	!	!	!	!	!	!	!	!	!	!	!	!	!	!
=66	=66	=66	=66	=66	=66	=66	=66	=66	=66	=66	=66	=66	=66	=66	=66	=66	=66
*Xtremolo	*	*	*	*	*	*	*	*	*	*	*	*	*	*	*	*	*
8D\L	6: 4:	.	16b/LL	16g\LL	.	4.bb\	.	4D\	-o	4d\	-o	4b\	-o	4gg\	-o	4f#/	4dd\
.	.	.	16b/	16g\	.	.	.	.	.	.	.	.	.	.	.	.	.
8D\	.	.	16b/	16g\	.	.	.	.	.	.	.	.	.	.	.	.	.
.	.	.	16b/	16g\	.	.	.	.	.	.	.	.	.	.	.	.	.
8D\	.	.	16b/	16g\	.	.	.	4D\	(et)	4d\	(et)	4b\	(et)	4gg\	(et)	4r	8dd\L
.	.	.	16b/	16g\	.	.	.	.	.	.	.	.	.	.	.	.	.
8D\J	.	.	16b/	16g\	.	8aa\	.	.	.	.	.	.	.	.	.	.	8dd\J
.	.	.	16b/JJ	16g\JJ	.	.	.	.	.	.	.	.	.	.	.	.	.
*tremolo	*	*	*	*	*	*	*	*	*	*	*	*	*	*	*	*	*
8D\L	.	.	16b/LL	16g\LL	.	8bb\L	.	4D\	nunc	4d\	nunc	4b\	nunc	4gg\	nunc	4f#/	4dd\
.	.	.	16b/	16g\	.	.	.	.	.	.	.	.	.	.	.	.	.
8D\	.	.	16b/	16g\	.	8ccc#\	.	.	.	.	.	.	.	.	.	.	.
.	.	.	16b/	16g\	.	.	.	.	.	.	.	.	.	.	.	.	.
8D\	.	.	16b/	16g\	.	8ddd\	.	4D\	(et)	4d\	(et)	4b\	(et)	4gg\	(et)	8d/L	4dd\
.	.	.	16b/	16g\	.	.	.	.	.	.	.	.	.	.	.	.	.
8D\J	.	.	16b/	16g\	.	8bb\J	.	.	.	.	.	.	.	.	.	8d/J	.
.	.	.	16b/JJ	16g\JJ	.	.	.	.	.	.	.	.	.	.	.	.	.
!	!	!	!	!	!	!	!	!	!	!	!	!	!	!LO:LB:g=original	!	!	!
=67	=67	=67	=67	=67	=67	=67	=67	=67	=67	=67	=67	=67	=67	=67	=67	=67	=67
8D\L	.	.	16b/LL	16g\LL	.	4.bb\	.	2D\	ſem-	2d\	ſem-	2b\	ſem-	2gg\	ſem-	4d/	4dd\
.	.	.	16b/	16g\	.	.	.	.	.	.	.	.	.	.	.	.	.
8D\	.	.	16b/	16g\	.	.	.	.	.	.	.	.	.	.	.	.	.
.	.	.	16b/	16g\	.	.	.	.	.	.	.	.	.	.	.	.	.
8D\	.	.	16b/	16g\	.	.	.	.	.	.	.	.	.	.	.	8d/L	8dd\L
.	.	.	16b/	16g\	.	.	.	.	.	.	.	.	.	.	.	.	.
8D\J	.	.	16b/	16g\	.	16aa\LL	.	.	.	.	.	.	.	.	.	8d/J	8dd\J
.	.	.	16b/JJ	16g\JJ	.	16bb\JJ	.	.	.	.	.	.	.	.	.	.	.
8D\L	5 3	.	16a/LL	16f#\LL	.	4aa\	.	2D\	-per	2d\	-per	2a\	-per	2ff#\	-per	4d/	4dd\
.	.	.	16a/	16f#\	.	.	.	.	.	.	.	.	.	.	.	.	.
8D\	.	.	16a/	16f#\	.	.	.	.	.	.	.	.	.	.	.	.	.
.	.	.	16a/	16f#\	.	.	.	.	.	.	.	.	.	.	.	.	.
8D\	.	.	16a/	16f#\	.	4ff#\	.	.	.	.	.	.	.	.	.	4r	4r
.	.	.	16a/	16f#\	.	.	.	.	.	.	.	.	.	.	.	.	.
8D\J	.	.	16a/	16f#\	.	.	.	.	.	.	.	.	.	.	.	.	.
.	.	.	16a/JJ	16f#\JJ	.	.	.	.	.	.	.	.	.	.	.	.	.
=68	=68	=68	=68	=68	=68	=68	=68	=68	=68	=68	=68	=68	=68	=68	=68	=68	=68
8C#/L	6 5	.	16a/LL	16e\LL	.	4.ee\	.	2C#/	(et)	2e\	(et)	2a\	(et)	2ee\	(et)	4a/	4ee\
.	.	.	16a/	16e\	.	.	.	.	.	.	.	.	.	.	.	.	.
8C#/	.	.	16a/	16e\	.	.	.	.	.	.	.	.	.	.	.	.	.
.	.	.	16a/	16e\	.	.	.	.	.	.	.	.	.	.	.	.	.
8C#/	.	.	16a/	16e\	.	.	.	.	.	.	.	.	.	.	.	8a/L	8ee\L
.	.	.	16a/	16e\	.	.	.	.	.	.	.	.	.	.	.	.	.
8C#/J	.	.	16a/	16e\	.	16dd\LL	.	.	.	.	.	.	.	.	.	8a/J	8ee\J
.	.	.	16a/JJ	16e\JJ	.	16ee\JJ	.	.	.	.	.	.	.	.	.	.	.
8D\L	.	.	16a/LL	16f#\LL	.	8ff#\L	.	2D\	in	2d\	in	2a\	in	2ff#\	in	4f#/	4dd\
.	.	.	16a/	16f#\	.	.	.	.	.	.	.	.	.	.	.	.	.
8D\	.	.	16a/	16f#\	.	8gg\	.	.	.	.	.	.	.	.	.	.	.
.	.	.	16a/	16f#\	.	.	.	.	.	.	.	.	.	.	.	.	.
8D\	.	.	16a/	16f#\	.	8aa\	.	.	.	.	.	.	.	.	.	4r	4r
.	.	.	16a/	16f#\	.	.	.	.	.	.	.	.	.	.	.	.	.
8D\J	.	.	16a/	16f#\	.	8ff#\J	.	.	.	.	.	.	.	.	.	.	.
.	.	.	16a/JJ	16f#\JJ	.	.	.	.	.	.	.	.	.	.	.	.	.
!	!	!	!	!	!	!LO:LB:g=original	!	!LO:LB:g=original	!	!LO:LB:g=original	!	!	!	!	!	!	!LO:LB:g=original
=69	=69	=69	=69	=69	=69	=69	=69	=69	=69	=69	=69	=69	=69	=69	=69	=69	=69
*	*	*	*tremolo	*tremolo	*	*	*	*	*	*	*	*	*	*	*	*	*
8C#/L	6 5	.	16a/LL	16e\LL	.	4.ee\	.	2C#/	ſae-	2e\	ſae-	2a\	ſae-	2ee\	ſae-	4a/	4ee\
.	.	.	16a/	16e\	.	.	.	.	.	.	.	.	.	.	.	.	.
8C#/	.	.	16a/	16e\	.	.	.	.	.	.	.	.	.	.	.	.	.
.	.	.	16a/	16e\	.	.	.	.	.	.	.	.	.	.	.	.	.
8C#/	.	.	16a/	16e\	.	.	.	.	.	.	.	.	.	.	.	8a/L	8ee\L
.	.	.	16a/	16e\	.	.	.	.	.	.	.	.	.	.	.	.	.
8C#/J	.	.	16a/	16e\	.	16dd\LL	.	.	.	.	.	.	.	.	.	8a/J	8ee\J
.	.	.	16a/JJ	16e\JJ	.	16ee\JJ	.	.	.	.	.	.	.	.	.	.	.
*	*	*	*Xtremolo	*Xtremolo	*	*	*	*	*	*	*	*	*	*	*	*	*
!	!	!	!LO:LB:g=original	!LO:LB:g=original	!	!	!	!	!	!	!	!	!	!	!	!	!
8D\L	.	.	16a/LL	16f#\LL	.	4ff#\	.	4D\	-cu-	4d\	-cu-	4a\	-cu-	4ff#\	-cu-	4f#/	4dd\
.	.	.	16a/	16f#\	.	.	.	.	.	.	.	.	.	.	.	.	.
8D\	.	.	16a/	16f#\	.	.	.	.	.	.	.	.	.	.	.	.	.
.	.	.	16a/JJ	16f#\JJ	.	.	.	.	.	.	.	.	.	.	.	.	.
*	*	*	*tremolo	*tremolo	*	*	*	*	*	*	*	*	*	*	*	*	*
8D\	.	.	16a/LL	16f#\LL	.	4aa\	.	4D\	-la	4d\	-la	4a\	-la	4ff#\	-la	4f#/	4dd\
.	.	.	16a/	16f#\	.	.	.	.	.	.	.	.	.	.	.	.	.
8D\J	.	.	16a/	16f#\	.	.	.	.	.	.	.	.	.	.	.	.	.
.	.	.	16a/JJ	16f#\JJ	.	.	.	.	.	.	.	.	.	.	.	.	.
=70	=70	=70	=70	=70	=70	=70	=70	=70	=70	=70	=70	=70	=70	=70	=70	=70	=70
8D\L	6 4	.	16b/LL	16g\LL	.	8bb\L	.	2D\	ſae-	2d\	ſae-	2b\	ſae-	2gg\	ſae-	4f#/	4dd\
.	.	.	16b/	16g\	.	.	.	.	.	.	.	.	.	.	.	.	.
8D\	.	.	16b/	16g\	.	8gg\	.	.	.	.	.	.	.	.	.	.	.
.	.	.	16b/	16g\	.	.	.	.	.	.	.	.	.	.	.	.	.
8D\	.	.	16b/	16g\	.	8ddd\	.	.	.	.	.	.	.	.	.	4r	4r
.	.	.	16b/	16g\	.	.	.	.	.	.	.	.	.	.	.	.	.
8D\J	.	.	16b/	16g\	.	8bb\J	.	.	.	.	.	.	.	.	.	.	.
.	.	.	16b/JJ	16g\JJ	.	.	.	.	.	.	.	.	.	.	.	.	.
8D\L	5 3	.	16a/LL	16f#\LL	.	8aa\L	.	2D\	-cu-	2d\	-cu-	2a\	-cu-	2ff#\	-cu-	4f#/	4dd\
.	.	.	16a/	16f#\	.	.	.	.	.	.	.	.	.	.	.	.	.
8D\	.	.	16a/	16f#\	.	8ff#\	.	.	.	.	.	.	.	.	.	.	.
.	.	.	16a/	16f#\	.	.	.	.	.	.	.	.	.	.	.	.	.
8D\	.	.	16a/	16f#\	.	8ddd\	.	.	.	.	.	.	.	.	.	4dd\	4ff#\
.	.	.	16a/	16f#\	.	.	.	.	.	.	.	.	.	.	.	.	.
8D\J	.	.	16a/	16f#\	.	8aa\J	.	.	.	.	.	.	.	.	.	.	.
.	.	.	16a/JJ	16f#\JJ	.	.	.	.	.	.	.	.	.	.	.	.	.
*	*	*	*v	*v	*	*	*	*	*	*	*	*	*	*	*	*	*
!	!	!	!	!	!	!	!	!	!	!	!LO:LB:g=original	!	!	!	!	!
=71	=71	=71	=71	=71	=71	=71	=71	=71	=71	=71	=71	=71	=71	=71	=71	=71
8G\L	6 x	.	16b\LL	.	8gg\L	.	4G\	-lo-	4B\	-lo-	4g\	-lo-	4ee\	-lo-	2ee\	2gg\
.	.	.	16b\	.	.	.	.	.	.	.	.	.	.	.	.	.
8G\	.	.	16b\	.	8ee\	.	.	.	.	.	.	.	.	.	.	.
.	.	.	16b\JJ	.	.	.	.	.	.	.	.	.	.	.	.	.
8G\	.	.	16ee\LL	.	8bb\	.	4G\	-rum	4B\	-rum	4g\	-rum	4ee\	-rum	.	.
.	.	.	16ee\	.	.	.	.	.	.	.	.	.	.	.	.	.
8G\J	.	.	16ee\	.	8gg\J	.	.	.	.	.	.	.	.	.	.	.
.	.	.	16ee\JJ	.	.	.	.	.	.	.	.	.	.	.	.	.
*Xtremolo	*	*	*	*	*	*	*	*	*	*	*	*	*	*	*	*
!!mixed beam:problem
!LO:TX:t=P:problem:mixed beam	!	!	!	!	!	!	!	!	!	!	!	!	!	!	!	!
8A\L	4 x	.	16dd\LL	.	8gg\L	.	4A\	a-	2A\	a-	4f#\	a-	4dd\	a-	4dd\	4ff#\
.	.	.	16dd\	.	.	.	.	.	.	.	.	.	.	.	.	.
8A\	.	.	16dd\	.	8ff#\	.	.	.	.	.	.	.	.	.	.	.
.	.	.	16dd\JJ	.	.	.	.	.	.	.	.	.	.	.	.	.
8AA/	x 3	.	16cc#\LL	.	8ff#\	.	4AA/	.	.	.	4e\	.	4cc#\	.	4a/	4ee\
.	.	.	16cc#\	.	.	.	.	.	.	.	.	.	.	.	.	.
8AA/J	.	.	16cc#\	.	8ee\J	.	.	.	.	.	.	.	.	.	.	.
.	.	.	16cc#\JJ	.	.	.	.	.	.	.	.	.	.	.	.	.
!LO:LB:g=original	!	!	!	!	!	!	!	!	!	!	!	!	!	!	!	!
=72	=72	=72	=72	=72	=72	=72	=72	=72	=72	=72	=72	=72	=72	=72	=72	=72
8D\L	.	.	16f#/LL	.	4ff#\	.	2D\	-men	2A\	-men	2f#\	-men	2dd\	-men	4f#/	4dd\
.	.	.	16f#/	.	.	.	.	.	.	.	.	.	.	.	.	.
8D\	.	.	16f#/	.	.	.	.	.	.	.	.	.	.	.	.	.
.	.	.	16f#/	.	.	.	.	.	.	.	.	.	.	.	.	.
8D\	.	.	16f#/	.	16a/LL	.	.	.	.	.	.	.	.	.	4r	4r
.	.	.	16f#/	.	16g/	.	.	.	.	.	.	.	.	.	.	.
8D\J	.	.	16f#/	.	16a/	.	.	.	.	.	.	.	.	.	.	.
.	.	.	16f#/JJ	.	16b/JJ	.	.	.	.	.	.	.	.	.	.	.
!	!	!	!	!	!	!	!	!	!	!	!	!	!LO:LB:g=original	!	!LO:LB:g=original	!
*tremolo	*	*	*	*	*	*	*	*	*	*	*	*	*	*	*	*
8D\L	.	.	16f#/LL	.	4a/	.	4D\	ſi-	4d\	ſi-	4f#\	ſi-	4a\	ſi-	4d/	4dd\
.	.	.	16f#/	.	.	.	.	.	.	.	.	.	.	.	.	.
8D\	.	.	16f#/	.	.	.	.	.	.	.	.	.	.	.	.	.
.	.	.	16f#/	.	.	.	.	.	.	.	.	.	.	.	.	.
8D\	.	.	16f#/	.	4dd\	.	4D\	-cut	4d\	-cut	4f#\	-cut	4a\	-cut	8d/L	8dd\L
.	.	.	16f#/	.	.	.	.	.	.	.	.	.	.	.	.	.
8D\J	.	.	16f#/	.	.	.	.	.	.	.	.	.	.	.	8d/J	8dd\J
.	.	.	16f#/JJ	.	.	.	.	.	.	.	.	.	.	.	.	.
!	!	!	!	!	!LO:LB:g=original	!	!	!	!	!	!	!	!	!	!	!
=73	=73	=73	=73	=73	=73	=73	=73	=73	=73	=73	=73	=73	=73	=73	=73	=73
8D\L	6: 4:	.	16g/LL	.	4b\	.	2D\	e-	2d\	e-	2g\	e-	2b\	e-	4f#/	4dd\
.	.	.	16g/	.	.	.	.	.	.	.	.	.	.	.	.	.
8D\	.	.	16g/	.	.	.	.	.	.	.	.	.	.	.	.	.
.	.	.	16g/	.	.	.	.	.	.	.	.	.	.	.	.	.
8D\	.	.	16g/	.	16b\LL	.	.	.	.	.	.	.	.	.	4r	4r
.	.	.	16g/	.	16a\	.	.	.	.	.	.	.	.	.	.	.
8D\J	.	.	16g/	.	16b\	.	.	.	.	.	.	.	.	.	.	.
.	.	.	16g/JJ	.	16cc#\JJ	.	.	.	.	.	.	.	.	.	.	.
8D\L	.	.	16g/LL	.	4b\	.	2D\	-rat	2d\	-rat	2g\	-rat	2b\	-rat	4d/	4dd\
.	.	.	16g/	.	.	.	.	.	.	.	.	.	.	.	.	.
8D\	.	.	16g/	.	.	.	.	.	.	.	.	.	.	.	.	.
.	.	.	16g/	.	.	.	.	.	.	.	.	.	.	.	.	.
8D\	.	.	16g/	.	8r	.	.	.	.	.	.	.	.	.	8d/L	8dd\L
.	.	.	16g/	.	.	.	.	.	.	.	.	.	.	.	.	.
8D\J	.	.	16g/	.	8b\	.	.	.	.	.	.	.	.	.	8d/J	8dd\J
.	.	.	16g/JJ	.	.	.	.	.	.	.	.	.	.	.	.	.
*	*	*	*Xtremolo	*	*	*	*	*	*	*	*	*	*	*	*	*
!	!	!	!LO:LB:g=original	!	!	!	!LO:LB:g=original	!	!LO:LB:g=original	!	!	!	!	!	!	!
=74	=74	=74	=74	=74	=74	=74	=74	=74	=74	=74	=74	=74	=74	=74	=74	=74
8D\L	7: 2:	.	16e/LL	.	4cc#\	.	2D\	in	2d\	in	2e\	in	2cc#\	in	4f#/	4dd\
.	.	.	16e/	.	.	.	.	.	.	.	.	.	.	.	.	.
8D\	.	.	16e/	.	.	.	.	.	.	.	.	.	.	.	.	.
.	.	.	16e/JJ	.	.	.	.	.	.	.	.	.	.	.	.	.
*	*	*	*tremolo	*	*	*	*	*	*	*	*	*	*	*	*	*
8D\	.	.	16e/LL	.	16cc#\LL	.	.	.	.	.	.	.	.	.	4r	4r
.	.	.	16e/	.	16dd\	.	.	.	.	.	.	.	.	.	.	.
8D\J	.	.	16e/	.	16cc#\	.	.	.	.	.	.	.	.	.	.	.
.	.	.	16e/JJ	.	16b\JJ	.	.	.	.	.	.	.	.	.	.	.
!	!	!	!	!	!LO:TX:a:rj:t=70:color=gray	!	!	!	!	!	!	!	!	!	!	!
8D\L	.	.	16e/LL	.	8cc#\L	.	2D\	prin-	2d\	prin-	2e\	prin-	2cc#\	prin-	4f#/	4dd\
.	.	.	16e/	.	.	.	.	.	.	.	.	.	.	.	.	.
8D\	.	.	16e/	.	8ee\	.	.	.	.	.	.	.	.	.	.	.
.	.	.	16e/	.	.	.	.	.	.	.	.	.	.	.	.	.
8D\	.	.	16e/	.	8a\	.	.	.	.	.	.	.	.	.	4f#/	4dd\
.	.	.	16e/	.	.	.	.	.	.	.	.	.	.	.	.	.
8D\J	.	.	16e/	.	8cc#\J	.	.	.	.	.	.	.	.	.	.	.
.	.	.	16e/JJ	.	.	.	.	.	.	.	.	.	.	.	.	.
=75	=75	=75	=75	=75	=75	=75	=75	=75	=75	=75	=75	=75	=75	=75	=75	=75
8D\L	X 3:	.	16f#/LL	.	4dd\	.	4.D\	-ci-	4.d\	-ci-	4.f#\	-ci-	4.dd\	-ci-	4f#/	4dd\
.	.	.	16f#/	.	.	.	.	.	.	.	.	.	.	.	.	.
8D\	.	.	16f#/	.	.	.	.	.	.	.	.	.	.	.	.	.
.	.	.	16f#/	.	.	.	.	.	.	.	.	.	.	.	.	.
8D\	.	.	16f#/	.	16dd\LL	.	.	.	.	.	.	.	.	.	4f#/	4dd\
.	.	.	16f#/	.	16cc#\	.	.	.	.	.	.	.	.	.	.	.
8D\J	.	.	16f#/	.	16dd\	.	8D\	-pi-	8d\	-pi-	8f#\	-pi-	8dd\	-pi-	.	.
.	.	.	16f#/JJ	.	16ee\JJ	.	.	.	.	.	.	.	.	.	.	.
!	!	!	!	!	!	!	!	!	!	!	!	!	!	!	!	!LO:LB:g=original
8D\L	.	.	16f#/LL	.	4ff#\	.	2D\	-o	2d\	-o	2f#\	-o	2dd\	-o	4f#/	4dd\
.	.	.	16f#/	.	.	.	.	.	.	.	.	.	.	.	.	.
8D\	.	.	16f#/	.	.	.	.	.	.	.	.	.	.	.	.	.
.	.	.	16f#/	.	.	.	.	.	.	.	.	.	.	.	.	.
8D\	.	.	16f#/	.	8r	.	.	.	.	.	.	.	.	.	8f#/L	8dd\L
.	.	.	16f#/	.	.	.	.	.	.	.	.	.	.	.	.	.
8D\J	.	.	16f#/	.	8dd\	.	.	.	.	.	.	.	.	.	8f#/J	8dd\J
.	.	.	16f#/JJ	.	.	.	.	.	.	.	.	.	.	.	.	.
!	!	!	!	!	!	!	!	!	!	!	!LO:LB:g=original	!	!	!	!	!
=76	=76	=76	=76	=76	=76	=76	=76	=76	=76	=76	=76	=76	=76	=76	=76	=76
8D\L	.	.	16f#/LL	.	4a/	.	2D\	ſi-	2d\	ſi-	2f#\	ſi-	2a\	ſi-	4d/	4dd\
.	.	.	16f#/	.	.	.	.	.	.	.	.	.	.	.	.	.
8D\	.	.	16f#/	.	.	.	.	.	.	.	.	.	.	.	.	.
.	.	.	16f#/	.	.	.	.	.	.	.	.	.	.	.	.	.
8D\	.	.	16f#/	.	16a/LL	.	.	.	.	.	.	.	.	.	4r	4r
.	.	.	16f#/	.	16g/	.	.	.	.	.	.	.	.	.	.	.
8D\J	.	.	16f#/	.	16a/	.	.	.	.	.	.	.	.	.	.	.
.	.	.	16f#/JJ	.	16b/JJ	.	.	.	.	.	.	.	.	.	.	.
!	!	!	!	!	!LO:LB:g=original	!	!	!	!	!	!	!	!	!	!	!
8D\L	.	.	16f#/LL	.	4a/	.	2D\	-cut	2d\	-cut	2f#\	-cut	2a\	-cut	4d/	4dd\
.	.	.	16f#/	.	.	.	.	.	.	.	.	.	.	.	.	.
8D\	.	.	16f#/	.	.	.	.	.	.	.	.	.	.	.	.	.
.	.	.	16f#/	.	.	.	.	.	.	.	.	.	.	.	.	.
8D\	.	.	16f#/	.	4dd\	.	.	.	.	.	.	.	.	.	8d/L	8dd\L
.	.	.	16f#/	.	.	.	.	.	.	.	.	.	.	.	.	.
8D\J	.	.	16f#/	.	.	.	.	.	.	.	.	.	.	.	8d/J	8dd\J
.	.	.	16f#/JJ	.	.	.	.	.	.	.	.	.	.	.	.	.
=77	=77	=77	=77	=77	=77	=77	=77	=77	=77	=77	=77	=77	=77	=77	=77	=77
8D\L	6: 4:	.	16g/LL	.	4b\	.	2D\	e-	2d\	e-	2g\	e-	2b\	e-	4d/	4dd\
.	.	.	16g/	.	.	.	.	.	.	.	.	.	.	.	.	.
8D\	.	.	16g/	.	.	.	.	.	.	.	.	.	.	.	.	.
.	.	.	16g/	.	.	.	.	.	.	.	.	.	.	.	.	.
8D\	.	.	16g/	.	16b\LL	.	.	.	.	.	.	.	.	.	4r	4r
.	.	.	16g/	.	16a\	.	.	.	.	.	.	.	.	.	.	.
8D\J	.	.	16g/	.	16b\	.	.	.	.	.	.	.	.	.	.	.
.	.	.	16g/JJ	.	16cc#\JJ	.	.	.	.	.	.	.	.	.	.	.
8D\L	.	.	16g/LL	.	4b\	.	2D\	-rat	2d\	-rat	2g\	-rat	2b\	-rat	4d/	4dd\
.	.	.	16g/	.	.	.	.	.	.	.	.	.	.	.	.	.
8D\	.	.	16g/	.	.	.	.	.	.	.	.	.	.	.	.	.
.	.	.	16g/	.	.	.	.	.	.	.	.	.	.	.	.	.
8D\	.	.	16g/	.	8r	.	.	.	.	.	.	.	.	.	8d/L	8dd\L
.	.	.	16g/	.	.	.	.	.	.	.	.	.	.	.	.	.
8D\J	.	.	16g/	.	8b\	.	.	.	.	.	.	.	.	.	8d/J	8dd\J
.	.	.	16g/JJ	.	.	.	.	.	.	.	.	.	.	.	.	.
!	!	!	!	!	!	!	!	!	!	!	!	!	!LO:LB:g=original	!	!	!
=78	=78	=78	=78	=78	=78	=78	=78	=78	=78	=78	=78	=78	=78	=78	=78	=78
8D\L	7: 2:	.	16e/LL	.	4cc#\	.	2D\	in	2d\	in	2e\	in	2cc#\	in	4f#/	4dd\
.	.	.	16e/	.	.	.	.	.	.	.	.	.	.	.	.	.
8D\	.	.	16e/	.	.	.	.	.	.	.	.	.	.	.	.	.
.	.	.	16e/	.	.	.	.	.	.	.	.	.	.	.	.	.
8D\	.	.	16e/	.	16cc#\LL	.	.	.	.	.	.	.	.	.	4r	4r
.	.	.	16e/	.	16b\	.	.	.	.	.	.	.	.	.	.	.
8D\J	.	.	16e/	.	16cc#\	.	.	.	.	.	.	.	.	.	.	.
.	.	.	16e/JJ	.	16dd\JJ	.	.	.	.	.	.	.	.	.	.	.
8D\L	.	.	16e/LL	.	8cc#\L	.	2D\	prin-	2d\	prin-	2e\	prin-	2cc#\	prin-	4f#/	4dd\
.	.	.	16e/	.	.	.	.	.	.	.	.	.	.	.	.	.
8D\	.	.	16e/	.	8ee\	.	.	.	.	.	.	.	.	.	.	.
.	.	.	16e/	.	.	.	.	.	.	.	.	.	.	.	.	.
8D\	.	.	16e/	.	8a\	.	.	.	.	.	.	.	.	.	4f#/	4dd\
.	.	.	16e/	.	.	.	.	.	.	.	.	.	.	.	.	.
8D\J	.	.	16e/	.	8cc#\J	.	.	.	.	.	.	.	.	.	.	.
.	.	.	16e/JJ	.	.	.	.	.	.	.	.	.	.	.	.	.
!LO:LB:g=original	!	!	!	!	!	!	!	!	!LO:PB:g=original	!	!	!	!	!	!	!
=79	=79	=79	=79	=79	=79	=79	=79	=79	=79	=79	=79	=79	=79	=79	=79	=79
*Xtremolo	*	*	*	*	*	*	*	*	*	*	*	*	*	*	*	*
8D\L	X 3:	.	16f#/LL	.	4dd\	.	4.D\	-ci-	4d\	-ci-	4.f#\	-ci-	4.dd\	-ci-	4d/	4dd\
.	.	.	16f#/	.	.	.	.	.	.	.	.	.	.	.	.	.
8D\	.	.	16f#/	.	.	.	.	.	.	.	.	.	.	.	.	.
.	.	.	16f#/	.	.	.	.	.	.	.	.	.	.	.	.	.
8D\	.	.	16f#/	.	16dd\LL	.	.	.	4d\	-pi-	.	.	.	.	4d/	4dd\
.	.	.	16f#/	.	16cc#\	.	.	.	.	.	.	.	.	.	.	.
8D\J	.	.	16f#/	.	16dd\	.	8D\	-pi-	.	.	8f#\	-pi-	8dd\	-pi-	.	.
.	.	.	16f#/JJ	.	16ee\JJ	.	.	.	.	.	.	.	.	.	.	.
!	!	!	!	!	!	!	!LO:LB:g=original	!	!	!	!	!	!	!	!	!
*tremolo	*	*	*	*	*	*	*	*	*	*	*	*	*	*	*	*
8D\L	.	.	16f#/LL	.	4ff#\	.	4D\	-o	4d\	-o	4f#\	-o	4dd\	-o	4d/	4dd\
.	.	.	16f#/	.	.	.	.	.	.	.	.	.	.	.	.	.
8D\	.	.	16f#/	.	.	.	.	.	.	.	.	.	.	.	.	.
.	.	.	16f#/	.	.	.	.	.	.	.	.	.	.	.	.	.
8D\	.	.	16f#/	.	8r	.	4D\	(et)	4A\	(et)	4f#\	(et)	4dd\	(et)	8d/L	8dd\L
.	.	.	16f#/	.	.	.	.	.	.	.	.	.	.	.	.	.
8D\J	.	.	16f#/	.	8ff#\	.	.	.	.	.	.	.	.	.	8d/J	8dd\J
.	.	.	16f#/JJ	.	.	.	.	.	.	.	.	.	.	.	.	.
*Xtremolo	*	*	*Xtremolo	*	*	*	*	*	*	*	*	*	*	*	*	*
!	!	!	!LO:LB:g=original	!	!LO:LB:g=original	!	!	!	!	!	!	!	!	!	!	!
=80	=80	=80	=80	=80	=80	=80	=80	=80	=80	=80	=80	=80	=80	=80	=80	=80
8C#/L	6: 5:	.	16a/LL	.	4.gg\	.	2C#/	nunc	2A\	nunc	2g\	nunc	2ee\	nunc	2a/	2ee\
.	.	.	16a/	.	.	.	.	.	.	.	.	.	.	.	.	.
8AA/	.	.	16a/	.	.	.	.	.	.	.	.	.	.	.	.	.
.	.	.	16a/JJ	.	.	.	.	.	.	.	.	.	.	.	.	.
*	*	*	*tremolo	*	*	*	*	*	*	*	*	*	*	*	*	*
8BB/	.	.	16a/LL	.	.	.	.	.	.	.	.	.	.	.	.	.
.	.	.	16a/	.	.	.	.	.	.	.	.	.	.	.	.	.
8C#/J	.	.	16a/	.	16aa\LL	.	.	.	.	.	.	.	.	.	.	.
.	.	.	16a/JJ	.	16gg\JJ	.	.	.	.	.	.	.	.	.	.	.
8D\L	.	.	16a/LL	.	8ff#\L	.	2D\	(et)	2A\	(et)	2f#\	(et)	2dd\	(et)	2dd\	2ff#\
.	.	.	16a/	.	.	.	.	.	.	.	.	.	.	.	.	.
8F#\	.	.	16a/	.	8dd\	.	.	.	.	.	.	.	.	.	.	.
.	.	.	16a/	.	.	.	.	.	.	.	.	.	.	.	.	.
8E\	.	.	16a/	.	8ee\	.	.	.	.	.	.	.	.	.	.	.
.	.	.	16a/	.	.	.	.	.	.	.	.	.	.	.	.	.
8D\J	.	.	16a/	.	8ff#\J	.	.	.	.	.	.	.	.	.	.	.
.	.	.	16a/JJ	.	.	.	.	.	.	.	.	.	.	.	.	.
!	!	!	!	!	!	!	!	!	!	!	!	!	!	!	!LO:LB:g=original	!
=81	=81	=81	=81	=81	=81	=81	=81	=81	=81	=81	=81	=81	=81	=81	=81	=81
8C#/L	6: 5:	.	16a/LL	.	4.gg\	.	2C#/	ſem-	2A\	ſem-	2g\	ſem-	2ee\	ſem-	2a/	2ee\
.	.	.	16a/	.	.	.	.	.	.	.	.	.	.	.	.	.
8AA/	.	.	16a/	.	.	.	.	.	.	.	.	.	.	.	.	.
.	.	.	16a/	.	.	.	.	.	.	.	.	.	.	.	.	.
8BB/	.	.	16a/	.	.	.	.	.	.	.	.	.	.	.	.	.
.	.	.	16a/	.	.	.	.	.	.	.	.	.	.	.	.	.
8C#/J	.	.	16a/	.	16aa\LL	.	.	.	.	.	.	.	.	.	.	.
.	.	.	16a/JJ	.	16gg\JJ	.	.	.	.	.	.	.	.	.	.	.
!	!	!	!	!	!	!	!	!	!	!	!	!	!	!	!	!LO:TX:b:i:t=Verte
8D\L	.	.	16a/LL	.	8ff#\L	.	4D\	-per	4A\	-per	4f#\	-per	4dd\	-per	2dd\	2ff#\
.	.	.	16a/	.	.	.	.	.	.	.	.	.	.	.	.	.
8F#\	.	.	16a/	.	8dd\	.	.	.	.	.	.	.	.	.	.	.
.	.	.	16a/	.	.	.	.	.	.	.	.	.	.	.	.	.
!	!	!	!	!	!	!	!	!	!	!	!LO:LB:g=original	!	!	!	!	!
8E\	.	.	16a/	.	8ee\	.	4D\	(et)	4A\	(et)	4f#\	(et)	4dd\	(et)	.	.
.	.	.	16a/	.	.	.	.	.	.	.	.	.	.	.	.	.
8D\J	.	.	16a/	.	8ff#\J	.	.	.	.	.	.	.	.	.	.	.
.	.	.	16a/JJ	.	.	.	.	.	.	.	.	.	.	.	.	.
!	!	!	!	!	!	!	!	!	!	!	!	!	!	!	!	!LO:PB:g=original
=82	=82	=82	=82	=82	=82	=82	=82	=82	=82	=82	=82	=82	=82	=82	=82	=82
8C#/L	6: 5:	.	16a/LL	.	4.gg\	.	4C#/	in	4A\	in	4g\	in	4ee\	in	2a/	2ee\
.	.	.	16a/	.	.	.	.	.	.	.	.	.	.	.	.	.
8AA/	.	.	16a/	.	.	.	.	.	.	.	.	.	.	.	.	.
.	.	.	16a/	.	.	.	.	.	.	.	.	.	.	.	.	.
8BB/	.	.	16a/	.	.	.	4C#/	ſae-	4A\	ſae-	4g\	ſae-	4ee\	ſae-	.	.
.	.	.	16a/	.	.	.	.	.	.	.	.	.	.	.	.	.
8C#/J	.	.	16a/	.	16aa\LL	.	.	.	.	.	.	.	.	.	.	.
.	.	.	16a/JJ	.	16gg\JJ	.	.	.	.	.	.	.	.	.	.	.
4D\	.	.	16a/LL	.	8ff#\L	.	4D\	-cu-	4A\	-cu-	4f#\	-cu-	4dd\	-cu-	4dd\	4ff#\
.	.	.	16a/	.	.	.	.	.	.	.	.	.	.	.	.	.
.	.	.	16a/	.	8aa\	.	.	.	.	.	.	.	.	.	.	.
.	.	.	16a/JJ	.	.	.	.	.	.	.	.	.	.	.	.	.
4G\	6 X	.	16ee\LL	.	8bb\	.	4G\	-la	4B\	-la	4g\	-la	4ee\	-la	4ee\	4gg\
.	.	.	16ee\	.	.	.	.	.	.	.	.	.	.	.	.	.
.	.	.	16ee\	.	8gg\J	.	.	.	.	.	.	.	.	.	.	.
.	.	.	16ee\JJ	.	.	.	.	.	.	.	.	.	.	.	.	.
*	*	*	*Xtremolo	*	*	*	*	*	*	*	*	*	*	*	*	*
!	!	!	!	!	!	!	!	!	!	!	!	!	!LO:LB:g=original	!	!	!
=83	=83	=83	=83	=83	=83	=83	=83	=83	=83	=83	=83	=83	=83	=83	=83	=83
4F#\	6 x	.	8ff#\L	.	8aa\L	.	4F#\	ſae-	4A\	ſae-	4a\	ſae-	4ff#\	ſae-	4ff#\	4aa\
.	.	.	8dd\	.	8ff#\	.	.	.	.	.	.	.	.	.	.	.
4G\	6 x	.	8ee\	.	8gg\	.	4G\	-cu-	4B\	-cu-	4g\	-cu-	4ee\	-cu-	4ee\	4gg\
.	.	.	8gg\J	.	8ee\J	.	.	.	.	.	.	.	.	.	.	.
4A\	4 x	.	8dd\L	.	8ff#\L	.	4A\	-lo-	2A\	-lo-	4f#\	-lo-	4dd\	-lo-	4dd\	4ff#\
.	.	.	8ff#\	.	8ddd\	.	.	.	.	.	.	.	.	.	.	.
4AA/	x 3	.	8cc#\	.	8ee\	.	4AA/	.	.	.	4e\	.	4cc#\	.	4a/	4ee\
.	.	.	8ee\J	.	8ccc#\J	.	.	.	.	.	.	.	.	.	.	.
!LO:LB:g=original	!	!	!	!	!LO:LB:g=original	!	!LO:LB:g=original	!	!LO:LB:g=original	!	!	!	!	!	!	!
=84	=84	=84	=84	=84	=84	=84	=84	=84	=84	=84	=84	=84	=84	=84	=84	=84
4D\	.	.	4d\ 4a\ 4ff#\	.	4ddd\	.	4D\	-rum	4A\	rum	4f#\	-rum	4dd\	-rum	4f#/	4dd\
!	!	!	!LO:LB:g=original	!	!	!	!	!	!	!	!	!	!	!	!	!
!	!	!	!LO:TUP:b:problem:klamra łukowa	!	!LO:TUP:a:problem:klamra łukowa	!	!	!	!	!	!	!	!	!	!	!
4r	.	.	12a/L	.	12aa\L	.	4r	.	4r	.	4r	.	4r	.	4r	4r
.	.	.	12a/	.	12aa\	.	.	.	.	.	.	.	.	.	.	.
.	.	.	12a/J	.	12aa\J	.	.	.	.	.	.	.	.	.	.	.
!	!	!	!	!	!LO:TX:a:t=80:color=gray	!	!	!	!	!	!	!	!	!	!	!
4r	.	.	4a/	.	4aa\	.	4r	.	4r	.	4r	.	4r	.	4r	4r
4G\	.	.	4e\ 4cc#\	.	4a\ 4gg\	.	4G\	a-	4A\	a-	4g\	a-	4ee\	a-	4a/	4ee\
=85	=85	=85	=85	=85	=85	=85	=85	=85	=85	=85	=85	=85	=85	=85	=85	=85
4D\	.	.	4f#\ 4dd\	.	4a\ 4ff#\	.	4D\	-men	4A\	-men	4f#\	-men	4dd\	-men	4f#/	4dd\
!	!	!	!LO:TUP:b:problem:klamra łukowa	!	!LO:TUP:a:problem:klamra łukowa	!	!	!	!	!	!	!	!	!	!	!
4r	.	.	12a/L	.	12aa\L	.	4r	.	4r	.	4r	.	4r	.	4r	4r
.	.	.	12a/	.	12aa\	.	.	.	.	.	.	.	.	.	.	.
.	.	.	12a/J	.	12aa\J	.	.	.	.	.	.	.	.	.	.	.
4r	.	.	4a/	.	4aa\	.	4r	.	4r	.	4r	.	4r	.	4r	4r
*	*	*	*	*	*	*	*	*ij	*	*ij	*	*ij	*	*ij	*	*
4G\	.	.	4e\ 4cc#\	.	4a\ 4gg\	.	4G\	a-	4A\	a-	4g\	a-	4ee\	a-	4a/	4ee\
=86	=86	=86	=86	=86	=86	=86	=86	=86	=86	=86	=86	=86	=86	=86	=86	=86
4D\	.	.	4f#\ 4dd\	.	4a\ 4ff#\	.	4D\	-men	4A\	-men	4f#\	-men	4dd\	-men	4f#/	4dd\
!	!	!	!LO:TUP:b:problem:klamra łukowa	!	!LO:TUP:a:problem:klamra łukowa	!	!	!	!	!	!	!	!	!	!	!
4r	.	.	12a/L	.	12aa\L	.	4r	.	4r	.	4r	.	4r	.	4r	4r
.	.	.	12a/	.	12aa\	.	.	.	.	.	.	.	.	.	.	.
.	.	.	12a/J	.	12aa\J	.	.	.	.	.	.	.	.	.	.	.
!	!	!	!	!	!	!	!	!	!	!	!LO:LB:g=original	!	!	!	!	!
4r	.	.	4a/	.	4aa\	.	4r	.	4r	.	4r	.	4r	.	4r	4r
*	*	*	*	*	*	*	*	*Xij	*	*Xij	*	*Xij	*	*Xij	*	*
4G\	.	.	4e\ 4cc#\	.	4a\ 4gg	.	4G\	a-	4A\	a-	4g\	a-	4ee\	a-	4a/	4ee\
=87	=87	=87	=87	=87	=87	=87	=87	=87	=87	=87	=87	=87	=87	=87	=87	=87
!	!	!	!LO:TUP:a:problem:klamra łukowa	!	!LO:TUP:a:problem:klamra łukowa	!	!	!	!	!	!	!	!	!	!	!
4D\	.	.	12dd\L	.	12ff#\L	.	4D\	.	4A\	.	4f#\	.	4dd\	.	4dd\	4ff#\
.	.	.	12dd\	.	12ff#\	.	.	.	.	.	.	.	.	.	.	.
.	.	.	12dd\J	.	12ff#\J	.	.	.	.	.	.	.	.	.	.	.
!	!	!	!LO:TUP:a:problem:klamra łukowa	!	!LO:TUP:a:problem:klamra łukowa	!	!	!	!	!	!	!	!	!	!	!
4G\	6 x	.	12ee\L	.	12gg\L	.	4G\	.	4B\	.	4g\	.	4ee\	.	4ee\	4gg\
.	.	.	12ee\	.	12gg\	.	.	.	.	.	.	.	.	.	.	.
.	.	.	12ee\J	.	12gg\J	.	.	.	.	.	.	.	.	.	.	.
!	!	!	!LO:LB:g=original	!	!LO:TUP:a:problem:klamra łukowa	!	!	!	!	!	!	!	!	!	!	!
4A\	4 x	.	12dd\L	.	12ff#\L	.	4A\	.	2A\	.	4f#\	.	4dd\	.	4dd\	4ff#\
.	.	.	12dd\	.	12ff#\	.	.	.	.	.	.	.	.	.	.	.
.	.	.	12dd\J	.	12ff#\J	.	.	.	.	.	.	.	.	.	.	.
!	!	!	!LO:TUP:a:problem:klamra łukowa	!	!LO:TUP:a:problem:klamra łukowa	!	!	!	!	!	!	!	!	!	!	!
4AA/	x 3	.	12cc#\L	.	12ee\L	.	4AA/	.	.	.	4e\	.	4cc#\	.	4a/	4ee\
.	.	.	12cc#\	.	12ee\	.	.	.	.	.	.	.	.	.	.	.
.	.	.	12cc#\J	.	12ee\J	.	.	.	.	.	.	.	.	.	.	.
!	!	!	!LO:LB:g=original	!	!	!	!	!	!	!	!	!	!LO:LB:g=original	!	!	!LO:LB:g=original
=88	=88	=88	=88	=88	=88	=88	=88	=88	=88	=88	=88	=88	=88	=88	=88	=88
*	*	*	*	*	*Xtuplet	*	*	*	*	*	*	*	*	*	*	*
!	!	!	!LO:TUP:a:problem:klamra łukowa	!	!	!	!	!	!	!	!	!	!	!	!	!
4D\	.	.	12dd\L	.	12ff#\L	.	4D\	-men	4A\	-men	2f#\	-men	2.dd\	.	4f#/	4dd\
.	.	.	12dd\	.	12ff#\	.	.	.	.	.	.	.	.	.	.	.
.	.	.	12dd\J	.	12ff#\J	.	.	.	.	.	.	.	.	.	.	.
*	*	*	*Xtuplet	*	*	*	*	*	*	*ij	*	*	*	*	*	*
4B\	.	.	12dd\L	.	12ff#\L	.	4B\	a-	2B\	a-	.	.	.	.	4dd\	4ff#\
.	.	.	12dd\	.	12ff#\	.	.	.	.	.	.	.	.	.	.	.
.	.	.	12dd\J	.	12ff#\J	.	.	.	.	.	.	.	.	.	.	.
*	*	*	*	*	*	*	*	*	*	*	*	*ij	*	*	*	*
4G\	6 5	.	12dd\L	.	12ee\L	.	4G\	.	.	.	2e\	a-	.	.	2a/	2ee\
.	.	.	12dd\	.	12ee\	.	.	.	.	.	.	.	.	.	.	.
.	.	.	12dd\J	.	12ee\J	.	.	.	.	.	.	.	.	.	.	.
4A\	.	.	12cc#\L	.	12ee\L	.	4A\	.	4A\	.	.	.	4cc#\	.	.	.
.	.	.	12cc#\	.	12ee\	.	.	.	.	.	.	.	.	.	.	.
.	.	.	12cc#\J	.	12ee\J	.	.	.	.	.	.	.	.	.	.	.
!	!	!	!	!	!	!	!LO:LB:g=original	!	!	!	!	!	!	!	!	!
=89	=89	=89	=89	=89	=89	=89	=89	=89	=89	=89	=89	=89	=89	=89	=89	=89
4D\	.	.	4f#\ 4dd\	.	4d\ 4a\ 4ff#\	.	4D\	-men	4A\	-men	4f#\	-men	4dd\	-men	4f#/	4dd\
4r	.	.	4r	.	4r	.	4r	.	4r	.	4r	.	4r	.	4r	4r
!LO:LB:g=original	!	!	!	!	!	!	!	!	!	!	!	!	!	!	!	!
*	*	*	*	*	*	*	*	*	*	*Xij	*	*Xij	*	*	*	*
*	*	*	*	*	*	*	*	*	*	*ij	*	*ij	*	*	*	*
4A\	.	.	4a\ 4ee\	.	4a\ 4ee\ 4ccc#\	.	4A\	a-	4c#\	a-	4a\	a-	4ee\	a-	4a/	4ee\
4r	.	.	4r	.	4r	.	4r	.	4r	.	4r	.	4r	.	4r	4r
!	!	!	!	!	!	!	!	!	!	!	!	!	!	!	!LO:LB:g=original	!
=90	=90	=90	=90	=90	=90	=90	=90	=90	=90	=90	=90	=90	=90	=90	=90	=90
4D\	.	.	4d\ 4a\ 4ff#\	.	4a\ 4ff#\ 4ddd\	.	4D\	-men	4d\	-men	4a\	-men	4ff#\	-men	4f#/	4dd\
!	!	!	!	!	!LO:TX:a:t=86:color=gray	!	!	!	!	!	!	!	!	!	!	!
4r	.	.	4r	.	4r	.	4r	.	4r	.	4r	.	4r	.	4r	4r
2r	.	.	2r	.	2r	.	2r	.	2r	.	2r	.	2r	.	2r	2r
*	*	*	*	*	*	*	*	*	*	*Xij	*	*Xij	*	*	*	*
==	==	==	==	==	==	==	==	==	==	==	==	==	==	==	==	==
*-	*-	*-	*-	*-	*-	*-	*-	*-	*-	*-	*-	*-	*-	*-	*-	*-
!!!system-decoration: [(g1)][(g2)][(g3)]g4
!!!RDF**kern: > = above
!!!RDF**kern: < = below
!!!AIN: 1 alto 1 bass 1 organ 1 soprn 1 tenor 2 tromp 2 violn
!!!ENC: Anastazja Marusiak
!!!END: 2020-07-14
!!!EED: Jędrzej Mróz
!!!EST: 2022-01-14
